; G-Code generated by Simplify3D(R) Version 4.1.1
; Feb 10, 2021 at 4:43:34 PM
; Settings Summary
;   processName,Process2
;   applyToModels,Beam_70x5x1(5),Beam_70x5x1(5)(2),Beam_70x5x1(5)(3),Beam_70x5x1(5)(4),Beam_70x5x1(5)(5),Beam_70x5x1(5)(6)
;   profileName,Default (modified)
;   profileVersion,2019-04-05 17:35:25
;   baseProfile,MakerGear M2 (24V V4 hotend) (modified)
;   printMaterial,PLA
;   printQuality,Medium
;   printExtruders,
;   extruderName,Primary Extruder
;   extruderToolheadNumber,0
;   extruderDiameter,0.4
;   extruderAutoWidth,1
;   extruderWidth,0.48
;   extrusionMultiplier,0.8
;   extruderUseRetract,1
;   extruderRetractionDistance,1
;   extruderExtraRestartDistance,0
;   extruderRetractionZLift,0
;   extruderRetractionSpeed,2400
;   extruderUseCoasting,0
;   extruderCoastingDistance,0.2
;   extruderUseWipe,0
;   extruderWipeDistance,5
;   primaryExtruder,0
;   layerHeight,0.4
;   topSolidLayers,0
;   bottomSolidLayers,0
;   perimeterOutlines,0
;   printPerimetersInsideOut,1
;   startPointOption,2
;   startPointOriginX,0
;   startPointOriginY,0
;   sequentialIslands,0
;   spiralVaseMode,0
;   firstLayerHeightPercentage,100
;   firstLayerWidthPercentage,100
;   firstLayerUnderspeed,1
;   useRaft,0
;   raftExtruder,0
;   raftTopLayers,3
;   raftBaseLayers,2
;   raftOffset,3
;   raftSeparationDistance,0.14
;   raftTopInfill,100
;   aboveRaftSpeedMultiplier,0.3
;   useSkirt,0
;   skirtExtruder,0
;   skirtLayers,1
;   skirtOutlines,2
;   skirtOffset,4
;   usePrimePillar,0
;   primePillarExtruder,999
;   primePillarWidth,12
;   primePillarLocation,7
;   primePillarSpeedMultiplier,1
;   useOozeShield,0
;   oozeShieldExtruder,999
;   oozeShieldOffset,2
;   oozeShieldOutlines,1
;   oozeShieldSidewallShape,1
;   oozeShieldSidewallAngle,30
;   oozeShieldSpeedMultiplier,1
;   infillExtruder,0
;   internalInfillPattern,Rectilinear
;   externalInfillPattern,Rectilinear
;   infillPercentage,100
;   outlineOverlapPercentage,0
;   infillExtrusionWidthPercentage,100
;   minInfillLength,1
;   infillLayerInterval,1
;   internalInfillAngles,90
;   overlapInternalInfillAngles,0
;   externalInfillAngles,45,-45
;   generateSupport,0
;   supportExtruder,0
;   supportInfillPercentage,40
;   supportExtraInflation,0.5
;   supportBaseLayers,0
;   denseSupportExtruder,0
;   denseSupportLayers,0
;   denseSupportInfillPercentage,70
;   supportLayerInterval,1
;   supportHorizontalPartOffset,0.5
;   supportUpperSeparationLayers,0
;   supportLowerSeparationLayers,0
;   supportType,0
;   supportGridSpacing,4
;   maxOverhangAngle,0
;   supportAngles,45,-45
;   temperatureName,Primary Extruder
;   temperatureNumber,0
;   temperatureSetpointCount,1
;   temperatureSetpointLayers,1
;   temperatureSetpointTemperatures,0
;   temperatureStabilizeAtStartup,1
;   temperatureHeatedBed,0
;   fanLayers,1,2
;   fanSpeeds,0,100
;   blipFanToFullPower,1
;   adjustSpeedForCooling,0
;   minSpeedLayerTime,15
;   minCoolingSpeedSlowdown,20
;   increaseFanForCooling,0
;   minFanLayerTime,45
;   maxCoolingFanSpeed,100
;   increaseFanForBridging,0
;   bridgingFanSpeed,100
;   use5D,1
;   relativeEdistances,1
;   allowEaxisZeroing,1
;   independentExtruderAxes,0
;   includeM10123,0
;   stickySupport,1
;   applyToolheadOffsets,1
;   gcodeXoffset,0
;   gcodeYoffset,0
;   gcodeZoffset,0
;   overrideMachineDefinition,1
;   machineTypeOverride,0
;   strokeXoverride,200
;   strokeYoverride,250
;   strokeZoverride,200
;   originOffsetXoverride,0
;   originOffsetYoverride,0
;   originOffsetZoverride,0
;   homeXdirOverride,-1
;   homeYdirOverride,-1
;   homeZdirOverride,-1
;   flipXoverride,1
;   flipYoverride,-1
;   flipZoverride,1
;   toolheadOffsets,0,0|-37.1,-5.5|0,0|0,0|0,0|0,0
;   overrideFirmwareConfiguration,1
;   firmwareTypeOverride,RepRap (Marlin/Repetier/Sprinter)
;   GPXconfigOverride,r2
;   baudRateOverride,115200
;   overridePrinterModels,1
;   printerModelsOverride,MakerGear_M2Single.stl
;   startingGcode,G28,G91,G1 X5 Y35 Z-125.3,G90,G92 X0 Y0 Z0,M50 S50
;   layerChangeGcode,
;   retractionGcode,
;   toolChangeGcode,
;   endingGcode,
;   exportFileFormat,gcode
;   celebration,0
;   celebrationSong,Random Song
;   postProcessing,{REPLACE "G1 E1.0000 F2400\n" "M3\n"},{REPLACE "G1 E-1.0000 F2400\n" "M4\n"},{REPLACE "G1 E2.0000 F1800\n" "M5\n"},{REPLACE "G1 E-2.0000 F1800\n" "M6\n"},{TOOL0REPLACE "G1 E3.0000 F1500\n" "M3\n"},{TOOL0REPLACE "G1 E-3.0000 F1500\n" "M4\n"},{TOOL1REPLACE "G1 E3.0000 F1500\n" "M5\n"},{TOOL1REPLACE "G1 E-3.0000 F1500\n" "M6\n"},{REPLACE "G1 E-3.0000 F1500\n" "M4\n"},{REPLACE "G1 E3.0000 F1500\n" "M5\n"}
;   defaultSpeed,1500
;   outlineUnderspeed,1
;   solidInfillUnderspeed,1
;   supportUnderspeed,0.8
;   rapidXYspeed,1500
;   rapidZspeed,1500
;   minBridgingArea,50
;   bridgingExtraInflation,0
;   bridgingExtrusionMultiplier,1
;   bridgingSpeedMultiplier,1
;   useFixedBridgingAngle,0
;   fixedBridgingAngle,0
;   applyBridgingToPerimeters,0
;   filamentDiameters,1.75|1.75|1.75|1.75|1.75|1.75
;   filamentPricesPerKg,46|46|46|46|46|46
;   filamentDensities,1.25|1.25|1.25|1.25|1.25|1.25
;   useMinPrintHeight,0
;   minPrintHeight,0
;   useMaxPrintHeight,0
;   maxPrintHeight,0
;   useDiaphragm,0
;   diaphragmLayerInterval,20
;   robustSlicing,1
;   mergeAllIntoSolid,0
;   onlyRetractWhenCrossingOutline,0
;   retractBetweenLayers,1
;   useRetractionMinTravel,0
;   retractionMinTravel,3
;   retractWhileWiping,0
;   onlyWipeOutlines,1
;   avoidCrossingOutline,0
;   maxMovementDetourFactor,3
;   toolChangeRetractionDistance,3
;   toolChangeExtraRestartDistance,0
;   toolChangeRetractionSpeed,1500
;   externalThinWallType,0
;   internalThinWallType,2
;   thinWallAllowedOverlapPercentage,10
;   singleExtrusionMinLength,1
;   singleExtrusionMinPrintingWidthPercentage,50
;   singleExtrusionMaxPrintingWidthPercentage,200
;   singleExtrusionEndpointExtension,0.2
;   horizontalSizeCompensation,0
G90
M83
M106 S0
M104 S0 T0
G28
G91
G1 X5 Y35 Z-124.1
G90
G92 X0 Y0 Z0
M50 S50
; process Process2
; layer 1, Z = 0.400
T0
M4
; feature infill
; tool H0.400 W0.480
G1 Z0.400 F1500
G1 X34.018 Y94.779 F1500
M3
G1 X34.018 Y123.341 E1.8240 F1500
G1 X33.538 Y123.341 E0.0307
G1 X33.538 Y94.779 E1.8240
G1 X33.058 Y94.779 E0.0307
G1 X33.058 Y123.341 E1.8240
G1 X32.578 Y123.341 E0.0307
G1 X32.578 Y94.779 E1.8240
G1 X32.098 Y94.779 E0.0307
G1 X32.098 Y123.341 E1.8240
G1 X31.618 Y123.341 E0.0307
G1 X31.618 Y94.779 E1.8240
G1 X31.138 Y94.779 E0.0307
G1 X31.138 Y123.341 E1.8240
G1 X30.658 Y123.341 E0.0307
G1 X30.658 Y94.779 E1.8240
G1 X30.178 Y94.779 E0.0307
G1 X30.178 Y123.341 E1.8240
G1 X29.698 Y123.341 E0.0307
G1 X29.698 Y94.779 E1.8240
G1 X29.218 Y94.779 E0.0307
G1 X29.218 Y123.341 E1.8240
G1 X28.738 Y123.341 E0.0307
G1 X28.738 Y94.779 E1.8240
G1 X28.258 Y94.779 E0.0307
G1 X28.258 Y123.341 E1.8240
G1 X27.778 Y123.341 E0.0307
G1 X27.778 Y94.779 E1.8240
G1 X27.298 Y94.779 E0.0307
G1 X27.298 Y123.341 E1.8240
G1 X26.818 Y123.341 E0.0307
G1 X26.818 Y94.779 E1.8240
G1 X26.338 Y94.779 E0.0307
G1 X26.338 Y123.341 E1.8240
G1 X25.858 Y123.341 E0.0307
G1 X25.858 Y94.779 E1.8240
G1 X25.378 Y94.779 E0.0307
G1 X25.378 Y123.341 E1.8240
G1 X24.898 Y123.341 E0.0307
G1 X24.898 Y94.779 E1.8240
G1 X24.418 Y94.779 E0.0307
G1 X24.418 Y123.341 E1.8240
G1 X23.938 Y123.341 E0.0307
G1 X23.938 Y94.779 E1.8240
G1 X23.458 Y94.779 E0.0307
G1 X23.458 Y123.341 E1.8240
G1 X22.978 Y123.341 E0.0307
G1 X22.978 Y94.779 E1.8240
G1 X22.498 Y94.779 E0.0307
G1 X22.498 Y123.341 E1.8240
G1 X22.018 Y123.341 E0.0307
G1 X22.018 Y94.779 E1.8240
G1 X21.538 Y94.779 E0.0307
G1 X21.538 Y123.341 E1.8240
G1 X21.058 Y123.341 E0.0307
G1 X21.058 Y94.779 E1.8240
G1 X20.578 Y94.779 E0.0307
G1 X20.578 Y123.341 E1.8240
G1 X20.098 Y123.341 E0.0307
G1 X20.098 Y94.779 E1.8240
G1 X19.618 Y94.779 E0.0307
G1 X19.618 Y123.341 E1.8240
G1 X19.138 Y123.341 E0.0307
G1 X19.138 Y94.779 E1.8240
G1 X18.658 Y94.779 E0.0307
G1 X18.658 Y123.341 E1.8240
G1 X18.178 Y123.341 E0.0307
G1 X18.178 Y94.779 E1.8240
G1 X17.698 Y94.779 E0.0307
G1 X17.698 Y123.341 E1.8240
G1 X17.218 Y123.341 E0.0307
G1 X17.218 Y94.779 E1.8240
G1 X16.738 Y94.779 E0.0307
G1 X16.738 Y123.341 E1.8240
G1 X16.258 Y123.341 E0.0307
G1 X16.258 Y94.779 E1.8240
G1 X15.778 Y94.779 E0.0307
G1 X15.778 Y123.341 E1.8240
G1 X15.298 Y123.341 E0.0307
G1 X15.298 Y94.779 E1.8240
G1 X14.818 Y94.779 E0.0307
G1 X14.818 Y123.341 E1.8240
G1 X14.338 Y123.341 E0.0307
G1 X14.338 Y94.779 E1.8240
G1 X13.858 Y94.779 E0.0307
G1 X13.858 Y123.341 E1.8240
G1 X13.378 Y123.341 E0.0307
G1 X13.378 Y94.779 E1.8240
G1 X12.898 Y94.779 E0.0307
G1 X12.898 Y123.341 E1.8240
G1 X12.418 Y123.341 E0.0307
G1 X12.418 Y94.779 E1.8240
G1 X11.938 Y94.779 E0.0307
G1 X11.938 Y123.341 E1.8240
G1 X11.458 Y123.341 E0.0307
G1 X11.458 Y94.779 E1.8240
G1 X10.978 Y94.779 E0.0307
G1 X10.978 Y123.341 E1.8240
G1 X10.498 Y123.341 E0.0307
G1 X10.498 Y94.779 E1.8240
G1 X10.018 Y94.779 E0.0307
G1 X10.018 Y123.341 E1.8240
G1 X9.538 Y123.341 E0.0307
G1 X9.538 Y94.779 E1.8240
G1 X9.058 Y94.779 E0.0307
G1 X9.058 Y123.341 E1.8240
G1 X8.578 Y123.341 E0.0307
G1 X8.578 Y94.779 E1.8240
G1 X8.098 Y94.779 E0.0307
G1 X8.098 Y123.341 E1.8240
G1 X7.618 Y123.341 E0.0307
G1 X7.618 Y94.779 E1.8240
G1 X7.138 Y94.779 E0.0307
G1 X7.138 Y123.341 E1.8240
G1 X6.658 Y123.341 E0.0307
G1 X6.658 Y94.779 E1.8240
G1 X6.178 Y94.779 E0.0307
G1 X6.178 Y123.341 E1.8240
M4
G1 X34.498 Y139.467 F1500
M3
G1 X34.498 Y168.029 E1.8240 F1500
G1 X34.018 Y168.029 E0.0307
G1 X34.018 Y139.467 E1.8240
G1 X33.538 Y139.467 E0.0307
G1 X33.538 Y168.029 E1.8240
G1 X33.058 Y168.029 E0.0307
G1 X33.058 Y139.467 E1.8240
G1 X32.578 Y139.467 E0.0307
G1 X32.578 Y168.029 E1.8240
G1 X32.098 Y168.029 E0.0307
G1 X32.098 Y139.467 E1.8240
G1 X31.618 Y139.467 E0.0307
G1 X31.618 Y168.029 E1.8240
G1 X31.138 Y168.029 E0.0307
G1 X31.138 Y139.467 E1.8240
G1 X30.658 Y139.467 E0.0307
G1 X30.658 Y168.029 E1.8240
G1 X30.178 Y168.029 E0.0307
G1 X30.178 Y139.467 E1.8240
G1 X29.698 Y139.467 E0.0307
G1 X29.698 Y168.029 E1.8240
G1 X29.218 Y168.029 E0.0307
G1 X29.218 Y139.467 E1.8240
G1 X28.738 Y139.467 E0.0307
G1 X28.738 Y168.029 E1.8240
G1 X28.258 Y168.029 E0.0307
G1 X28.258 Y139.467 E1.8240
G1 X27.778 Y139.467 E0.0307
G1 X27.778 Y168.029 E1.8240
G1 X27.298 Y168.029 E0.0307
G1 X27.298 Y139.467 E1.8240
G1 X26.818 Y139.467 E0.0307
G1 X26.818 Y168.029 E1.8240
G1 X26.338 Y168.029 E0.0307
G1 X26.338 Y139.467 E1.8240
G1 X25.858 Y139.467 E0.0307
G1 X25.858 Y168.029 E1.8240
G1 X25.378 Y168.029 E0.0307
G1 X25.378 Y139.467 E1.8240
G1 X24.898 Y139.467 E0.0307
G1 X24.898 Y168.029 E1.8240
G1 X24.418 Y168.029 E0.0307
G1 X24.418 Y139.467 E1.8240
G1 X23.938 Y139.467 E0.0307
G1 X23.938 Y168.029 E1.8240
G1 X23.458 Y168.029 E0.0307
G1 X23.458 Y139.467 E1.8240
G1 X22.978 Y139.467 E0.0307
G1 X22.978 Y168.029 E1.8240
G1 X22.498 Y168.029 E0.0307
G1 X22.498 Y139.467 E1.8240
G1 X22.018 Y139.467 E0.0307
G1 X22.018 Y168.029 E1.8240
G1 X21.538 Y168.029 E0.0307
G1 X21.538 Y139.467 E1.8240
G1 X21.058 Y139.467 E0.0307
G1 X21.058 Y168.029 E1.8240
G1 X20.578 Y168.029 E0.0307
G1 X20.578 Y139.467 E1.8240
G1 X20.098 Y139.467 E0.0307
G1 X20.098 Y168.029 E1.8240
G1 X19.618 Y168.029 E0.0307
G1 X19.618 Y139.467 E1.8240
G1 X19.138 Y139.467 E0.0307
G1 X19.138 Y168.029 E1.8240
G1 X18.658 Y168.029 E0.0307
G1 X18.658 Y139.467 E1.8240
G1 X18.178 Y139.467 E0.0307
G1 X18.178 Y168.029 E1.8240
G1 X17.698 Y168.029 E0.0307
G1 X17.698 Y139.467 E1.8240
G1 X17.218 Y139.467 E0.0307
G1 X17.218 Y168.029 E1.8240
G1 X16.738 Y168.029 E0.0307
G1 X16.738 Y139.467 E1.8240
G1 X16.258 Y139.467 E0.0307
G1 X16.258 Y168.029 E1.8240
G1 X15.778 Y168.029 E0.0307
G1 X15.778 Y139.467 E1.8240
G1 X15.298 Y139.467 E0.0307
G1 X15.298 Y168.029 E1.8240
G1 X14.818 Y168.029 E0.0307
G1 X14.818 Y139.467 E1.8240
G1 X14.338 Y139.467 E0.0307
G1 X14.338 Y168.029 E1.8240
G1 X13.858 Y168.029 E0.0307
G1 X13.858 Y139.467 E1.8240
G1 X13.378 Y139.467 E0.0307
G1 X13.378 Y168.029 E1.8240
G1 X12.898 Y168.029 E0.0307
G1 X12.898 Y139.467 E1.8240
G1 X12.418 Y139.467 E0.0307
G1 X12.418 Y168.029 E1.8240
G1 X11.938 Y168.029 E0.0307
G1 X11.938 Y139.467 E1.8240
G1 X11.458 Y139.467 E0.0307
G1 X11.458 Y168.029 E1.8240
G1 X10.978 Y168.029 E0.0307
G1 X10.978 Y139.467 E1.8240
G1 X10.498 Y139.467 E0.0307
G1 X10.498 Y168.029 E1.8240
G1 X10.018 Y168.029 E0.0307
G1 X10.018 Y139.467 E1.8240
G1 X9.538 Y139.467 E0.0307
G1 X9.538 Y168.029 E1.8240
G1 X9.058 Y168.029 E0.0307
G1 X9.058 Y139.467 E1.8240
G1 X8.578 Y139.467 E0.0307
G1 X8.578 Y168.029 E1.8240
G1 X8.098 Y168.029 E0.0307
G1 X8.098 Y139.467 E1.8240
G1 X7.618 Y139.467 E0.0307
G1 X7.618 Y168.029 E1.8240
G1 X7.138 Y168.029 E0.0307
G1 X7.138 Y139.467 E1.8240
G1 X6.658 Y139.467 E0.0307
G1 X6.658 Y168.029 E1.8240
M4
G1 X42.178 Y167.703 F1500
M3
G1 X42.178 Y139.141 E1.8240 F1500
G1 X42.658 Y139.141 E0.0307
G1 X42.658 Y167.703 E1.8240
G1 X43.138 Y167.703 E0.0307
G1 X43.138 Y139.141 E1.8240
G1 X43.618 Y139.141 E0.0307
G1 X43.618 Y167.703 E1.8240
G1 X44.098 Y167.703 E0.0307
G1 X44.098 Y139.141 E1.8240
G1 X44.578 Y139.141 E0.0307
G1 X44.578 Y167.703 E1.8240
G1 X45.058 Y167.703 E0.0307
G1 X45.058 Y139.141 E1.8240
G1 X45.538 Y139.141 E0.0307
G1 X45.538 Y167.703 E1.8240
G1 X46.018 Y167.703 E0.0307
G1 X46.018 Y139.141 E1.8240
G1 X46.498 Y139.141 E0.0307
G1 X46.498 Y167.703 E1.8240
G1 X46.978 Y167.703 E0.0307
G1 X46.978 Y139.141 E1.8240
G1 X47.458 Y139.141 E0.0307
G1 X47.458 Y167.703 E1.8240
G1 X47.938 Y167.703 E0.0307
G1 X47.938 Y139.141 E1.8240
G1 X48.418 Y139.141 E0.0307
G1 X48.418 Y167.703 E1.8240
G1 X48.898 Y167.703 E0.0307
G1 X48.898 Y139.141 E1.8240
G1 X49.378 Y139.141 E0.0307
G1 X49.378 Y167.703 E1.8240
G1 X49.858 Y167.703 E0.0307
G1 X49.858 Y139.141 E1.8240
G1 X50.338 Y139.141 E0.0307
G1 X50.338 Y167.703 E1.8240
G1 X50.818 Y167.703 E0.0307
G1 X50.818 Y139.141 E1.8240
G1 X51.298 Y139.141 E0.0307
G1 X51.298 Y167.703 E1.8240
G1 X51.778 Y167.703 E0.0307
G1 X51.778 Y139.141 E1.8240
G1 X52.258 Y139.141 E0.0307
G1 X52.258 Y167.703 E1.8240
G1 X52.738 Y167.703 E0.0307
G1 X52.738 Y139.141 E1.8240
G1 X53.218 Y139.141 E0.0307
G1 X53.218 Y167.703 E1.8240
G1 X53.698 Y167.703 E0.0307
G1 X53.698 Y139.141 E1.8240
G1 X54.178 Y139.141 E0.0307
G1 X54.178 Y167.703 E1.8240
G1 X54.658 Y167.703 E0.0307
G1 X54.658 Y139.141 E1.8240
G1 X55.138 Y139.141 E0.0307
G1 X55.138 Y167.703 E1.8240
G1 X55.618 Y167.703 E0.0307
G1 X55.618 Y139.141 E1.8240
G1 X56.098 Y139.141 E0.0307
G1 X56.098 Y167.703 E1.8240
G1 X56.578 Y167.703 E0.0307
G1 X56.578 Y139.141 E1.8240
G1 X57.058 Y139.141 E0.0307
G1 X57.058 Y167.703 E1.8240
G1 X57.538 Y167.703 E0.0307
G1 X57.538 Y139.141 E1.8240
G1 X58.018 Y139.141 E0.0307
G1 X58.018 Y167.703 E1.8240
G1 X58.498 Y167.703 E0.0307
G1 X58.498 Y139.141 E1.8240
G1 X58.978 Y139.141 E0.0307
G1 X58.978 Y167.703 E1.8240
G1 X59.458 Y167.703 E0.0307
G1 X59.458 Y139.141 E1.8240
G1 X59.938 Y139.141 E0.0307
G1 X59.938 Y167.703 E1.8240
G1 X60.418 Y167.703 E0.0307
G1 X60.418 Y139.141 E1.8240
G1 X60.898 Y139.141 E0.0307
G1 X60.898 Y167.703 E1.8240
G1 X61.378 Y167.703 E0.0307
G1 X61.378 Y139.141 E1.8240
G1 X61.858 Y139.141 E0.0307
G1 X61.858 Y167.703 E1.8240
G1 X62.338 Y167.703 E0.0307
G1 X62.338 Y139.141 E1.8240
G1 X62.818 Y139.141 E0.0307
G1 X62.818 Y167.703 E1.8240
G1 X63.298 Y167.703 E0.0307
G1 X63.298 Y139.141 E1.8240
G1 X63.778 Y139.141 E0.0307
G1 X63.778 Y167.703 E1.8240
G1 X64.258 Y167.703 E0.0307
G1 X64.258 Y139.141 E1.8240
G1 X64.738 Y139.141 E0.0307
G1 X64.738 Y167.703 E1.8240
G1 X65.218 Y167.703 E0.0307
G1 X65.218 Y139.141 E1.8240
G1 X65.698 Y139.141 E0.0307
G1 X65.698 Y167.703 E1.8240
G1 X66.178 Y167.703 E0.0307
