; G-Code generated by Simplify3D(R) Version 4.1.1
; Feb 10, 2021 at 4:36:29 PM
; Settings Summary
;   processName,Process2
;   applyToModels,Beam_70x5x1(4)(2)(2)
;   profileName,Default (modified)
;   profileVersion,2019-04-05 17:35:25
;   baseProfile,MakerGear M2 (24V V4 hotend) (modified)
;   printMaterial,PLA
;   printQuality,Medium
;   printExtruders,
;   extruderName,Primary Extruder
;   extruderToolheadNumber,0
;   extruderDiameter,0.4
;   extruderAutoWidth,1
;   extruderWidth,0.48
;   extrusionMultiplier,0.8
;   extruderUseRetract,1
;   extruderRetractionDistance,1
;   extruderExtraRestartDistance,0
;   extruderRetractionZLift,0
;   extruderRetractionSpeed,2400
;   extruderUseCoasting,0
;   extruderCoastingDistance,0.2
;   extruderUseWipe,0
;   extruderWipeDistance,5
;   primaryExtruder,0
;   layerHeight,0.4
;   topSolidLayers,0
;   bottomSolidLayers,0
;   perimeterOutlines,0
;   printPerimetersInsideOut,1
;   startPointOption,2
;   startPointOriginX,0
;   startPointOriginY,0
;   sequentialIslands,0
;   spiralVaseMode,0
;   firstLayerHeightPercentage,100
;   firstLayerWidthPercentage,100
;   firstLayerUnderspeed,1
;   useRaft,0
;   raftExtruder,0
;   raftTopLayers,3
;   raftBaseLayers,2
;   raftOffset,3
;   raftSeparationDistance,0.14
;   raftTopInfill,100
;   aboveRaftSpeedMultiplier,0.3
;   useSkirt,0
;   skirtExtruder,0
;   skirtLayers,1
;   skirtOutlines,2
;   skirtOffset,4
;   usePrimePillar,0
;   primePillarExtruder,999
;   primePillarWidth,12
;   primePillarLocation,7
;   primePillarSpeedMultiplier,1
;   useOozeShield,0
;   oozeShieldExtruder,999
;   oozeShieldOffset,2
;   oozeShieldOutlines,1
;   oozeShieldSidewallShape,1
;   oozeShieldSidewallAngle,30
;   oozeShieldSpeedMultiplier,1
;   infillExtruder,0
;   internalInfillPattern,Rectilinear
;   externalInfillPattern,Rectilinear
;   infillPercentage,100
;   outlineOverlapPercentage,0
;   infillExtrusionWidthPercentage,100
;   minInfillLength,1
;   infillLayerInterval,1
;   internalInfillAngles,90
;   overlapInternalInfillAngles,0
;   externalInfillAngles,45,-45
;   generateSupport,0
;   supportExtruder,0
;   supportInfillPercentage,40
;   supportExtraInflation,0.5
;   supportBaseLayers,0
;   denseSupportExtruder,0
;   denseSupportLayers,0
;   denseSupportInfillPercentage,70
;   supportLayerInterval,1
;   supportHorizontalPartOffset,0.5
;   supportUpperSeparationLayers,0
;   supportLowerSeparationLayers,0
;   supportType,0
;   supportGridSpacing,4
;   maxOverhangAngle,0
;   supportAngles,45,-45
;   temperatureName,Primary Extruder
;   temperatureNumber,0
;   temperatureSetpointCount,1
;   temperatureSetpointLayers,1
;   temperatureSetpointTemperatures,0
;   temperatureStabilizeAtStartup,1
;   temperatureHeatedBed,0
;   fanLayers,1,2
;   fanSpeeds,0,100
;   blipFanToFullPower,1
;   adjustSpeedForCooling,0
;   minSpeedLayerTime,15
;   minCoolingSpeedSlowdown,20
;   increaseFanForCooling,0
;   minFanLayerTime,45
;   maxCoolingFanSpeed,100
;   increaseFanForBridging,0
;   bridgingFanSpeed,100
;   use5D,1
;   relativeEdistances,1
;   allowEaxisZeroing,1
;   independentExtruderAxes,0
;   includeM10123,0
;   stickySupport,1
;   applyToolheadOffsets,1
;   gcodeXoffset,0
;   gcodeYoffset,0
;   gcodeZoffset,0
;   overrideMachineDefinition,1
;   machineTypeOverride,0
;   strokeXoverride,200
;   strokeYoverride,250
;   strokeZoverride,200
;   originOffsetXoverride,0
;   originOffsetYoverride,0
;   originOffsetZoverride,0
;   homeXdirOverride,-1
;   homeYdirOverride,-1
;   homeZdirOverride,-1
;   flipXoverride,1
;   flipYoverride,-1
;   flipZoverride,1
;   toolheadOffsets,0,0|-37.1,-5.5|0,0|0,0|0,0|0,0
;   overrideFirmwareConfiguration,1
;   firmwareTypeOverride,RepRap (Marlin/Repetier/Sprinter)
;   GPXconfigOverride,r2
;   baudRateOverride,115200
;   overridePrinterModels,1
;   printerModelsOverride,MakerGear_M2Single.stl
;   startingGcode,G28,G91,G1 X5 Y35 Z-125.3,G90,G92 X0 Y0 Z0,M50 S50
;   layerChangeGcode,
;   retractionGcode,
;   toolChangeGcode,
;   endingGcode,
;   exportFileFormat,gcode
;   celebration,0
;   celebrationSong,Random Song
;   postProcessing,{REPLACE "G1 E1.0000 F2400\n" "M3\n"},{REPLACE "G1 E-1.0000 F2400\n" "M4\n"},{REPLACE "G1 E2.0000 F1800\n" "M5\n"},{REPLACE "G1 E-2.0000 F1800\n" "M6\n"},{TOOL0REPLACE "G1 E3.0000 F1500\n" "M3\n"},{TOOL0REPLACE "G1 E-3.0000 F1500\n" "M4\n"},{TOOL1REPLACE "G1 E3.0000 F1500\n" "M5\n"},{TOOL1REPLACE "G1 E-3.0000 F1500\n" "M6\n"},{REPLACE "G1 E-3.0000 F1500\n" "M4\n"},{REPLACE "G1 E3.0000 F1500\n" "M5\n"}
;   defaultSpeed,1500
;   outlineUnderspeed,1
;   solidInfillUnderspeed,1
;   supportUnderspeed,0.8
;   rapidXYspeed,1500
;   rapidZspeed,1500
;   minBridgingArea,50
;   bridgingExtraInflation,0
;   bridgingExtrusionMultiplier,1
;   bridgingSpeedMultiplier,1
;   useFixedBridgingAngle,0
;   fixedBridgingAngle,0
;   applyBridgingToPerimeters,0
;   filamentDiameters,1.75|1.75|1.75|1.75|1.75|1.75
;   filamentPricesPerKg,46|46|46|46|46|46
;   filamentDensities,1.25|1.25|1.25|1.25|1.25|1.25
;   useMinPrintHeight,0
;   minPrintHeight,0
;   useMaxPrintHeight,0
;   maxPrintHeight,0
;   useDiaphragm,0
;   diaphragmLayerInterval,20
;   robustSlicing,1
;   mergeAllIntoSolid,0
;   onlyRetractWhenCrossingOutline,0
;   retractBetweenLayers,1
;   useRetractionMinTravel,0
;   retractionMinTravel,3
;   retractWhileWiping,0
;   onlyWipeOutlines,1
;   avoidCrossingOutline,0
;   maxMovementDetourFactor,3
;   toolChangeRetractionDistance,3
;   toolChangeExtraRestartDistance,0
;   toolChangeRetractionSpeed,1500
;   externalThinWallType,0
;   internalThinWallType,2
;   thinWallAllowedOverlapPercentage,10
;   singleExtrusionMinLength,1
;   singleExtrusionMinPrintingWidthPercentage,50
;   singleExtrusionMaxPrintingWidthPercentage,200
;   singleExtrusionEndpointExtension,0.2
;   horizontalSizeCompensation,0
G90
M83
M106 S0
M104 S0 T0
G28
G91
G1 X5 Y35 Z-124
G90
G92 X0 Y0 Z0
M50 S50
; process Process2
; layer 1, Z = 0.400
T0
M4
; feature infill
; tool H0.400 W0.480
G1 Z0.400 F1500
G1 X85.792 Y69.280 F1500
M3
G1 X85.792 Y60.717 E0.5468 F1500
G1 X86.272 Y60.717 E0.0307
G1 X86.272 Y69.280 E0.5468
G1 X86.752 Y69.280 E0.0307
G1 X86.752 Y60.717 E0.5468
G1 X87.232 Y60.717 E0.0307
G1 X87.232 Y69.280 E0.5468
G1 X87.712 Y69.280 E0.0307
G1 X87.712 Y60.717 E0.5468
G1 X88.192 Y60.717 E0.0307
G1 X88.192 Y69.280 E0.5468
G1 X88.672 Y69.280 E0.0307
G1 X88.672 Y60.717 E0.5468
G1 X89.152 Y60.717 E0.0307
G1 X89.152 Y69.280 E0.5468
G1 X89.632 Y69.280 E0.0307
G1 X89.632 Y60.717 E0.5468
G1 X90.112 Y60.717 E0.0307
G1 X90.112 Y69.280 E0.5468
G1 X90.592 Y69.280 E0.0307
G1 X90.592 Y60.717 E0.5468
G1 X91.072 Y60.717 E0.0307
G1 X91.072 Y69.280 E0.5468
G1 X91.552 Y69.280 E0.0307
G1 X91.552 Y60.717 E0.5468
G1 X92.032 Y60.717 E0.0307
G1 X92.032 Y69.280 E0.5468
G1 X92.512 Y69.280 E0.0307
G1 X92.512 Y60.717 E0.5468
G1 X92.992 Y60.717 E0.0307
G1 X92.992 Y69.280 E0.5468
G1 X93.472 Y69.280 E0.0307
G1 X93.472 Y60.717 E0.5468
M4
; layer 2, Z = 0.800
M106 S255
G1 Z0.800 F1500
M3
G1 X93.472 Y69.280 E0.5468 F1500
G1 X92.992 Y69.280 E0.0307
G1 X92.992 Y60.717 E0.5468
G1 X92.512 Y60.717 E0.0307
G1 X92.512 Y69.280 E0.5468
G1 X92.032 Y69.280 E0.0307
G1 X92.032 Y60.717 E0.5468
G1 X91.552 Y60.717 E0.0307
G1 X91.552 Y69.280 E0.5468
G1 X91.072 Y69.280 E0.0307
G1 X91.072 Y60.717 E0.5468
G1 X90.592 Y60.717 E0.0307
G1 X90.592 Y69.280 E0.5468
G1 X90.112 Y69.280 E0.0307
G1 X90.112 Y60.717 E0.5468
G1 X89.632 Y60.717 E0.0307
G1 X89.632 Y69.280 E0.5468
G1 X89.152 Y69.280 E0.0307
G1 X89.152 Y60.717 E0.5468
G1 X88.672 Y60.717 E0.0307
G1 X88.672 Y69.280 E0.5468
G1 X88.192 Y69.280 E0.0307
G1 X88.192 Y60.717 E0.5468
G1 X87.712 Y60.717 E0.0307
G1 X87.712 Y69.280 E0.5468
G1 X87.232 Y69.280 E0.0307
G1 X87.232 Y60.717 E0.5468
G1 X86.752 Y60.717 E0.0307
G1 X86.752 Y69.280 E0.5468
G1 X86.272 Y69.280 E0.0307
G1 X86.272 Y60.717 E0.5468
G1 X85.792 Y60.717 E0.0307
G1 X85.792 Y69.280 E0.5468
M4
; layer 3, Z = 1.200
G1 Z1.200 F1500
M3
G1 X85.792 Y60.717 E0.5468 F1500
G1 X86.272 Y60.717 E0.0307
G1 X86.272 Y69.280 E0.5468
G1 X86.752 Y69.280 E0.0307
G1 X86.752 Y60.717 E0.5468
G1 X87.232 Y60.717 E0.0307
G1 X87.232 Y69.280 E0.5468
G1 X87.712 Y69.280 E0.0307
G1 X87.712 Y60.717 E0.5468
G1 X88.192 Y60.717 E0.0307
G1 X88.192 Y69.280 E0.5468
G1 X88.672 Y69.280 E0.0307
G1 X88.672 Y60.717 E0.5468
G1 X89.152 Y60.717 E0.0307
G1 X89.152 Y69.280 E0.5468
G1 X89.632 Y69.280 E0.0307
G1 X89.632 Y60.717 E0.5468
G1 X90.112 Y60.717 E0.0307
G1 X90.112 Y69.280 E0.5468
G1 X90.592 Y69.280 E0.0307
G1 X90.592 Y60.717 E0.5468
G1 X91.072 Y60.717 E0.0307
G1 X91.072 Y69.280 E0.5468
G1 X91.552 Y69.280 E0.0307
G1 X91.552 Y60.717 E0.5468
G1 X92.032 Y60.717 E0.0307
G1 X92.032 Y69.280 E0.5468
G1 X92.512 Y69.280 E0.0307
G1 X92.512 Y60.717 E0.5468
G1 X92.992 Y60.717 E0.0307
G1 X92.992 Y69.280 E0.5468
G1 X93.472 Y69.280 E0.0307
G1 X93.472 Y60.717 E0.5468
M4
; layer 4, Z = 1.600
G1 Z1.600 F1500
M3
G1 X93.472 Y69.280 E0.5468 F1500
G1 X92.992 Y69.280 E0.0307
G1 X92.992 Y60.717 E0.5468
G1 X92.512 Y60.717 E0.0307
G1 X92.512 Y69.280 E0.5468
G1 X92.032 Y69.280 E0.0307
G1 X92.032 Y60.717 E0.5468
G1 X91.552 Y60.717 E0.0307
G1 X91.552 Y69.280 E0.5468
G1 X91.072 Y69.280 E0.0307
G1 X91.072 Y60.717 E0.5468
G1 X90.592 Y60.717 E0.0307
G1 X90.592 Y69.280 E0.5468
G1 X90.112 Y69.280 E0.0307
G1 X90.112 Y60.717 E0.5468
G1 X89.632 Y60.717 E0.0307
G1 X89.632 Y69.280 E0.5468
G1 X89.152 Y69.280 E0.0307
G1 X89.152 Y60.717 E0.5468
G1 X88.672 Y60.717 E0.0307
G1 X88.672 Y69.280 E0.5468
G1 X88.192 Y69.280 E0.0307
G1 X88.192 Y60.717 E0.5468
G1 X87.712 Y60.717 E0.0307
G1 X87.712 Y69.280 E0.5468
G1 X87.232 Y69.280 E0.0307
G1 X87.232 Y60.717 E0.5468
G1 X86.752 Y60.717 E0.0307
G1 X86.752 Y69.280 E0.5468
G1 X86.272 Y69.280 E0.0307
G1 X86.272 Y60.717 E0.5468
G1 X85.792 Y60.717 E0.0307
G1 X85.792 Y69.280 E0.5468
M4
; layer 5, Z = 2.000
G1 Z2.000 F1500
M3
G1 X85.792 Y60.717 E0.5468 F1500
G1 X86.272 Y60.717 E0.0307
G1 X86.272 Y69.280 E0.5468
G1 X86.752 Y69.280 E0.0307
G1 X86.752 Y60.717 E0.5468
G1 X87.232 Y60.717 E0.0307
G1 X87.232 Y69.280 E0.5468
G1 X87.712 Y69.280 E0.0307
G1 X87.712 Y60.717 E0.5468
G1 X88.192 Y60.717 E0.0307
G1 X88.192 Y69.280 E0.5468
G1 X88.672 Y69.280 E0.0307
G1 X88.672 Y60.717 E0.5468
G1 X89.152 Y60.717 E0.0307
G1 X89.152 Y69.280 E0.5468
G1 X89.632 Y69.280 E0.0307
G1 X89.632 Y60.717 E0.5468
G1 X90.112 Y60.717 E0.0307
G1 X90.112 Y69.280 E0.5468
G1 X90.592 Y69.280 E0.0307
G1 X90.592 Y60.717 E0.5468
G1 X91.072 Y60.717 E0.0307
G1 X91.072 Y69.280 E0.5468
G1 X91.552 Y69.280 E0.0307
G1 X91.552 Y60.717 E0.5468
G1 X92.032 Y60.717 E0.0307
G1 X92.032 Y69.280 E0.5468
G1 X92.512 Y69.280 E0.0307
G1 X92.512 Y60.717 E0.5468
G1 X92.992 Y60.717 E0.0307
G1 X92.992 Y69.280 E0.5468
G1 X93.472 Y69.280 E0.0307
G1 X93.472 Y60.717 E0.5468
M4
; layer 6, Z = 2.400
G1 Z2.400 F1500
M3
G1 X93.472 Y69.280 E0.5468 F1500
G1 X92.992 Y69.280 E0.0307
G1 X92.992 Y60.717 E0.5468
G1 X92.512 Y60.717 E0.0307
G1 X92.512 Y69.280 E0.5468
G1 X92.032 Y69.280 E0.0307
G1 X92.032 Y60.717 E0.5468
G1 X91.552 Y60.717 E0.0307
G1 X91.552 Y69.280 E0.5468
G1 X91.072 Y69.280 E0.0307
G1 X91.072 Y60.717 E0.5468
G1 X90.592 Y60.717 E0.0307
G1 X90.592 Y69.280 E0.5468
G1 X90.112 Y69.280 E0.0307
G1 X90.112 Y60.717 E0.5468
G1 X89.632 Y60.717 E0.0307
G1 X89.632 Y69.280 E0.5468
G1 X89.152 Y69.280 E0.0307
G1 X89.152 Y60.717 E0.5468
G1 X88.672 Y60.717 E0.0307
G1 X88.672 Y69.280 E0.5468
G1 X88.192 Y69.280 E0.0307
G1 X88.192 Y60.717 E0.5468
G1 X87.712 Y60.717 E0.0307
G1 X87.712 Y69.280 E0.5468
G1 X87.232 Y69.280 E0.0307
G1 X87.232 Y60.717 E0.5468
G1 X86.752 Y60.717 E0.0307
G1 X86.752 Y69.280 E0.5468
G1 X86.272 Y69.280 E0.0307
G1 X86.272 Y60.717 E0.5468
G1 X85.792 Y60.717 E0.0307
G1 X85.792 Y69.280 E0.5468
M4
; layer 7, Z = 2.800
G1 Z2.800 F1500
M3
G1 X85.792 Y60.717 E0.5468 F1500
G1 X86.272 Y60.717 E0.0307
G1 X86.272 Y69.280 E0.5468
G1 X86.752 Y69.280 E0.0307
G1 X86.752 Y60.717 E0.5468
G1 X87.232 Y60.717 E0.0307
G1 X87.232 Y69.280 E0.5468
G1 X87.712 Y69.280 E0.0307
G1 X87.712 Y60.717 E0.5468
G1 X88.192 Y60.717 E0.0307
G1 X88.192 Y69.280 E0.5468
G1 X88.672 Y69.280 E0.0307
G1 X88.672 Y60.717 E0.5468
G1 X89.152 Y60.717 E0.0307
G1 X89.152 Y69.280 E0.5468
G1 X89.632 Y69.280 E0.0307
G1 X89.632 Y60.717 E0.5468
G1 X90.112 Y60.717 E0.0307
G1 X90.112 Y69.280 E0.5468
G1 X90.592 Y69.280 E0.0307
G1 X90.592 Y60.717 E0.5468
G1 X91.072 Y60.717 E0.0307
G1 X91.072 Y69.280 E0.5468
G1 X91.552 Y69.280 E0.0307
G1 X91.552 Y60.717 E0.5468
G1 X92.032 Y60.717 E0.0307
G1 X92.032 Y69.280 E0.5468
G1 X92.512 Y69.280 E0.0307
G1 X92.512 Y60.717 E0.5468
G1 X92.992 Y60.717 E0.0307
G1 X92.992 Y69.280 E0.5468
G1 X93.472 Y69.280 E0.0307
G1 X93.472 Y60.717 E0.5468
M4
; layer 8, Z = 3.200
G1 Z3.200 F1500
M3
G1 X93.472 Y69.280 E0.5468 F1500
G1 X92.992 Y69.280 E0.0307
G1 X92.992 Y60.717 E0.5468
G1 X92.512 Y60.717 E0.0307
G1 X92.512 Y69.280 E0.5468
G1 X92.032 Y69.280 E0.0307
G1 X92.032 Y60.717 E0.5468
G1 X91.552 Y60.717 E0.0307
G1 X91.552 Y69.280 E0.5468
G1 X91.072 Y69.280 E0.0307
G1 X91.072 Y60.717 E0.5468
G1 X90.592 Y60.717 E0.0307
G1 X90.592 Y69.280 E0.5468
G1 X90.112 Y69.280 E0.0307
G1 X90.112 Y60.717 E0.5468
G1 X89.632 Y60.717 E0.0307
G1 X89.632 Y69.280 E0.5468
G1 X89.152 Y69.280 E0.0307
G1 X89.152 Y60.717 E0.5468
G1 X88.672 Y60.717 E0.0307
G1 X88.672 Y69.280 E0.5468
G1 X88.192 Y69.280 E0.0307
G1 X88.192 Y60.717 E0.5468
G1 X87.712 Y60.717 E0.0307
G1 X87.712 Y69.280 E0.5468
G1 X87.232 Y69.280 E0.0307
G1 X87.232 Y60.717 E0.5468
G1 X86.752 Y60.717 E0.0307
G1 X86.752 Y69.280 E0.5468
G1 X86.272 Y69.280 E0.0307
G1 X86.272 Y60.717 E0.5468
G1 X85.792 Y60.717 E0.0307
G1 X85.792 Y69.280 E0.5468
M4
; layer 9, Z = 3.600
G1 Z3.600 F1500
M3
G1 X85.792 Y60.717 E0.5468 F1500
G1 X86.272 Y60.717 E0.0307
G1 X86.272 Y69.280 E0.5468
G1 X86.752 Y69.280 E0.0307
G1 X86.752 Y60.717 E0.5468
G1 X87.232 Y60.717 E0.0307
G1 X87.232 Y69.280 E0.5468
G1 X87.712 Y69.280 E0.0307
G1 X87.712 Y60.717 E0.5468
G1 X88.192 Y60.717 E0.0307
G1 X88.192 Y69.280 E0.5468
G1 X88.672 Y69.280 E0.0307
G1 X88.672 Y60.717 E0.5468
G1 X89.152 Y60.717 E0.0307
G1 X89.152 Y69.280 E0.5468
G1 X89.632 Y69.280 E0.0307
G1 X89.632 Y60.717 E0.5468
G1 X90.112 Y60.717 E0.0307
G1 X90.112 Y69.280 E0.5468
G1 X90.592 Y69.280 E0.0307
G1 X90.592 Y60.717 E0.5468
G1 X91.072 Y60.717 E0.0307
G1 X91.072 Y69.280 E0.5468
G1 X91.552 Y69.280 E0.0307
G1 X91.552 Y60.717 E0.5468
G1 X92.032 Y60.717 E0.0307
G1 X92.032 Y69.280 E0.5468
G1 X92.512 Y69.280 E0.0307
G1 X92.512 Y60.717 E0.5468
G1 X92.992 Y60.717 E0.0307
G1 X92.992 Y69.280 E0.5468
G1 X93.472 Y69.280 E0.0307
G1 X93.472 Y60.717 E0.5468
M4
; layer 10, Z = 4.000
G1 Z4.000 F1500
M3
G1 X93.472 Y69.280 E0.5468 F1500
G1 X92.992 Y69.280 E0.0307
G1 X92.992 Y60.717 E0.5468
G1 X92.512 Y60.717 E0.0307
G1 X92.512 Y69.280 E0.5468
G1 X92.032 Y69.280 E0.0307
G1 X92.032 Y60.717 E0.5468
G1 X91.552 Y60.717 E0.0307
G1 X91.552 Y69.280 E0.5468
G1 X91.072 Y69.280 E0.0307
G1 X91.072 Y60.717 E0.5468
G1 X90.592 Y60.717 E0.0307
G1 X90.592 Y69.280 E0.5468
G1 X90.112 Y69.280 E0.0307
G1 X90.112 Y60.717 E0.5468
G1 X89.632 Y60.717 E0.0307
G1 X89.632 Y69.280 E0.5468
G1 X89.152 Y69.280 E0.0307
G1 X89.152 Y60.717 E0.5468
G1 X88.672 Y60.717 E0.0307
G1 X88.672 Y69.280 E0.5468
G1 X88.192 Y69.280 E0.0307
G1 X88.192 Y60.717 E0.5468
G1 X87.712 Y60.717 E0.0307
G1 X87.712 Y69.280 E0.5468
G1 X87.232 Y69.280 E0.0307
G1 X87.232 Y60.717 E0.5468
G1 X86.752 Y60.717 E0.0307
G1 X86.752 Y69.280 E0.5468
G1 X86.272 Y69.280 E0.0307
G1 X86.272 Y60.717 E0.5468
G1 X85.792 Y60.717 E0.0307
G1 X85.792 Y69.280 E0.5468
M4
; layer 11, Z = 4.400
G1 Z4.400 F1500
M3
