; G-Code generated by Simplify3D(R) Version 4.1.1
; Apr 7, 2021 at 4:32:54 PM
; Settings Summary
;   processName,Process1
;   applyToModels,3mm_height,5mm_height,side_support_r22mm_h10mm,side_support_r22mm_h10mm(2)
;   profileName,Default (modified)
;   profileVersion,2019-04-05 17:35:25
;   baseProfile,MakerGear M2 (24V V4 hotend) (modified)
;   printMaterial,PLA
;   printQuality,Medium
;   printExtruders,
;   extruderName,Primary Extruder
;   extruderToolheadNumber,0
;   extruderDiameter,0.4
;   extruderAutoWidth,0
;   extruderWidth,0.48
;   extrusionMultiplier,1
;   extruderUseRetract,1
;   extruderRetractionDistance,1
;   extruderExtraRestartDistance,0
;   extruderRetractionZLift,0
;   extruderRetractionSpeed,2400
;   extruderUseCoasting,0
;   extruderCoastingDistance,0.2
;   extruderUseWipe,0
;   extruderWipeDistance,5
;   primaryExtruder,0
;   layerHeight,0.3
;   topSolidLayers,0
;   bottomSolidLayers,0
;   perimeterOutlines,30
;   printPerimetersInsideOut,1
;   startPointOption,2
;   startPointOriginX,0
;   startPointOriginY,0
;   sequentialIslands,0
;   spiralVaseMode,0
;   firstLayerHeightPercentage,100
;   firstLayerWidthPercentage,100
;   firstLayerUnderspeed,1
;   useRaft,0
;   raftExtruder,0
;   raftTopLayers,3
;   raftBaseLayers,2
;   raftOffset,3
;   raftSeparationDistance,0.14
;   raftTopInfill,100
;   aboveRaftSpeedMultiplier,0.3
;   useSkirt,0
;   skirtExtruder,0
;   skirtLayers,1
;   skirtOutlines,2
;   skirtOffset,4
;   usePrimePillar,0
;   primePillarExtruder,999
;   primePillarWidth,12
;   primePillarLocation,7
;   primePillarSpeedMultiplier,1
;   useOozeShield,0
;   oozeShieldExtruder,999
;   oozeShieldOffset,2
;   oozeShieldOutlines,1
;   oozeShieldSidewallShape,1
;   oozeShieldSidewallAngle,30
;   oozeShieldSpeedMultiplier,1
;   infillExtruder,0
;   internalInfillPattern,Rectilinear
;   externalInfillPattern,Concentric
;   infillPercentage,100
;   outlineOverlapPercentage,0
;   infillExtrusionWidthPercentage,100
;   minInfillLength,1
;   infillLayerInterval,1
;   internalInfillAngles,45,-45
;   overlapInternalInfillAngles,0
;   externalInfillAngles,45,-45
;   generateSupport,0
;   supportExtruder,0
;   supportInfillPercentage,40
;   supportExtraInflation,0.5
;   supportBaseLayers,0
;   denseSupportExtruder,0
;   denseSupportLayers,0
;   denseSupportInfillPercentage,70
;   supportLayerInterval,1
;   supportHorizontalPartOffset,0.5
;   supportUpperSeparationLayers,0
;   supportLowerSeparationLayers,0
;   supportType,0
;   supportGridSpacing,4
;   maxOverhangAngle,0
;   supportAngles,45,-45
;   temperatureName,Primary Extruder
;   temperatureNumber,0
;   temperatureSetpointCount,1
;   temperatureSetpointLayers,1
;   temperatureSetpointTemperatures,0
;   temperatureStabilizeAtStartup,1
;   temperatureHeatedBed,0
;   fanLayers,1,2
;   fanSpeeds,0,100
;   blipFanToFullPower,1
;   adjustSpeedForCooling,0
;   minSpeedLayerTime,15
;   minCoolingSpeedSlowdown,20
;   increaseFanForCooling,0
;   minFanLayerTime,45
;   maxCoolingFanSpeed,100
;   increaseFanForBridging,0
;   bridgingFanSpeed,100
;   use5D,1
;   relativeEdistances,1
;   allowEaxisZeroing,1
;   independentExtruderAxes,0
;   includeM10123,0
;   stickySupport,1
;   applyToolheadOffsets,1
;   gcodeXoffset,0
;   gcodeYoffset,0
;   gcodeZoffset,0
;   overrideMachineDefinition,1
;   machineTypeOverride,0
;   strokeXoverride,200
;   strokeYoverride,250
;   strokeZoverride,200
;   originOffsetXoverride,0
;   originOffsetYoverride,0
;   originOffsetZoverride,0
;   homeXdirOverride,-1
;   homeYdirOverride,-1
;   homeZdirOverride,-1
;   flipXoverride,1
;   flipYoverride,-1
;   flipZoverride,1
;   toolheadOffsets,0,0|-37.1,-5.5|0,0|0,0|0,0|0,0
;   overrideFirmwareConfiguration,1
;   firmwareTypeOverride,RepRap (Marlin/Repetier/Sprinter)
;   GPXconfigOverride,r2
;   baudRateOverride,115200
;   overridePrinterModels,1
;   printerModelsOverride,MakerGear_M2Single.stl
;   startingGcode,G28,G91,G1 X5 Y35 Z-125.3,G90,G92 X0 Y0 Z0,M50 S50
;   layerChangeGcode,
;   retractionGcode,
;   toolChangeGcode,
;   endingGcode,
;   exportFileFormat,gcode
;   celebration,0
;   celebrationSong,Random Song
;   postProcessing,{REPLACE "G1 E1.0000 F2400\n" "M3\n"},{REPLACE "G1 E-1.0000 F2400\n" "M4\n"},{REPLACE "G1 E2.0000 F1800\n" "M5\n"},{REPLACE "G1 E-2.0000 F1800\n" "M6\n"},{TOOL0REPLACE "G1 E3.0000 F1500\n" "M3\n"},{TOOL0REPLACE "G1 E-3.0000 F1500\n" "M4\n"},{TOOL1REPLACE "G1 E3.0000 F1500\n" "M5\n"},{TOOL1REPLACE "G1 E-3.0000 F1500\n" "M6\n"},{REPLACE "G1 E-3.0000 F1500\n" "M4\n"},{REPLACE "G1 E3.0000 F1500\n" "M5\n"}
;   defaultSpeed,2100
;   outlineUnderspeed,1
;   solidInfillUnderspeed,1
;   supportUnderspeed,0.8
;   rapidXYspeed,1500
;   rapidZspeed,1500
;   minBridgingArea,50
;   bridgingExtraInflation,0
;   bridgingExtrusionMultiplier,1
;   bridgingSpeedMultiplier,1
;   useFixedBridgingAngle,0
;   fixedBridgingAngle,0
;   applyBridgingToPerimeters,0
;   filamentDiameters,1.75|1.75|1.75|1.75|1.75|1.75
;   filamentPricesPerKg,46|46|46|46|46|46
;   filamentDensities,1.25|1.25|1.25|1.25|1.25|1.25
;   useMinPrintHeight,0
;   minPrintHeight,0
;   useMaxPrintHeight,0
;   maxPrintHeight,0
;   useDiaphragm,0
;   diaphragmLayerInterval,20
;   robustSlicing,1
;   mergeAllIntoSolid,0
;   onlyRetractWhenCrossingOutline,0
;   retractBetweenLayers,1
;   useRetractionMinTravel,0
;   retractionMinTravel,3
;   retractWhileWiping,0
;   onlyWipeOutlines,1
;   avoidCrossingOutline,0
;   maxMovementDetourFactor,3
;   toolChangeRetractionDistance,3
;   toolChangeExtraRestartDistance,0
;   toolChangeRetractionSpeed,1500
;   externalThinWallType,0
;   internalThinWallType,2
;   thinWallAllowedOverlapPercentage,10
;   singleExtrusionMinLength,1
;   singleExtrusionMinPrintingWidthPercentage,50
;   singleExtrusionMaxPrintingWidthPercentage,200
;   singleExtrusionEndpointExtension,0.2
;   horizontalSizeCompensation,0
G90
M83
M106 S0
M104 S0 T0
G28
G91
G1 X0 Y50 Z-124.15
G90
G92 X0 Y0 Z0
M50 S50
; process Process1
; layer 1, Z = 0.300
T0
M4
; feature inner perimeter
; tool H0.300 W0.480
G1 Z0.300 F1500
G1 X13.955 Y9.538 F1500
M3
G1 X14.336 Y8.968 E0.0411 F2100
G1 X14.789 Y8.452 E0.0411
G1 X15.304 Y8.000 E0.0411
G1 X15.875 Y7.618 E0.0411
G1 X16.490 Y7.315 E0.0411
G1 X17.140 Y7.095 E0.0411
G1 X17.777 Y6.968 E0.0389
G1 X17.777 Y7.492 E0.0314
G1 X17.038 Y7.669 E0.0455
G1 X16.353 Y7.953 E0.0444
G1 X15.721 Y8.340 E0.0444
G1 X15.158 Y8.821 E0.0444
G1 X14.677 Y9.385 E0.0444
G1 X14.290 Y10.016 E0.0444
G1 X14.006 Y10.701 E0.0444
G1 X13.828 Y11.440 E0.0455
G1 X13.305 Y11.440 E0.0314
G1 X13.431 Y10.803 E0.0389
G1 X13.652 Y10.153 E0.0411
G1 X13.955 Y9.538 E0.0411
M4
; feature outer perimeter
G1 X13.539 Y9.298 F1500
M3
G1 X13.955 Y8.675 E0.0448 F2100
G1 X14.449 Y8.112 E0.0448
G1 X15.012 Y7.618 E0.0448
G1 X15.634 Y7.202 E0.0448
G1 X16.306 Y6.871 E0.0448
G1 X17.015 Y6.630 E0.0448
G1 X17.750 Y6.484 E0.0448
G1 X18.257 Y6.451 E0.0304
G1 X18.257 Y6.949 E0.0299
G1 X20.757 Y6.483 E0.1522
G1 X20.757 Y6.949 E0.0279
G1 X23.257 Y6.483 E0.1522
G1 X23.257 Y6.949 E0.0279
G1 X25.757 Y6.483 E0.1522
G1 X25.757 Y6.949 E0.0279
G1 X28.257 Y6.483 E0.1522
G1 X28.257 Y6.949 E0.0279
G1 X30.757 Y6.483 E0.1522
G1 X30.757 Y6.949 E0.0279
G1 X33.257 Y6.483 E0.1522
G1 X33.257 Y6.949 E0.0279
G1 X35.757 Y6.483 E0.1522
G1 X35.757 Y6.949 E0.0279
G1 X38.257 Y6.483 E0.1522
G1 X38.257 Y7.920 E0.0860
G1 X18.487 Y7.920 E1.1836
G1 X17.802 Y7.979 E0.0411
G1 X17.187 Y8.127 E0.0379
G1 X16.572 Y8.382 E0.0398
G1 X16.004 Y8.730 E0.0398
G1 X15.498 Y9.162 E0.0398
G1 X15.066 Y9.668 E0.0398
G1 X14.719 Y10.235 E0.0398
G1 X14.464 Y10.850 E0.0398
G1 X14.309 Y11.497 E0.0398
G1 X14.275 Y11.920 E0.0254
G1 X12.787 Y11.920 E0.0891
G1 X12.821 Y11.413 E0.0304
G1 X12.967 Y10.678 E0.0448
G1 X13.207 Y9.969 E0.0448
G1 X13.539 Y9.298 E0.0448
M4
; feature gap fill
G1 X18.265 Y7.436 F1500
M3
G1 X18.285 Y7.456 E0.0017 F2100
G1 X18.466 Y7.440 E0.0109
G1 X18.948 Y7.440 E0.0289
G1 X18.837 Y7.329 E0.0094
G1 X19.409 Y7.223 E0.0348
G1 X19.627 Y7.440 E0.0184
G1 X20.277 Y7.440 E0.0389
G1 X20.277 Y7.412 E0.0017
G1 X19.981 Y7.116 E0.0250
M4
G1 X20.946 Y7.402 F1500
M3
G1 X20.985 Y7.440 E0.0032 F2100
G1 X21.663 Y7.440 E0.0406
G1 X21.519 Y7.296 E0.0123
G1 X22.091 Y7.189 E0.0348
G1 X22.342 Y7.440 E0.0213
G1 X22.777 Y7.440 E0.0260
G1 X22.777 Y7.196 E0.0146
G1 X22.663 Y7.082 E0.0097
M4
G1 X23.700 Y7.440 F1500
M3
G1 X23.628 Y7.368 E0.0061 F2100
G1 X24.200 Y7.262 E0.0348
G1 X24.379 Y7.440 E0.0151
G1 X25.057 Y7.440 E0.0406
G1 X24.772 Y7.155 E0.0242
M4
G1 X26.415 Y7.440 F1500
M3
G1 X26.309 Y7.335 E0.0090 F2100
G1 X26.881 Y7.228 E0.0348
G1 X27.094 Y7.440 E0.0180
G1 X27.773 Y7.440 E0.0406
G1 X27.454 Y7.121 E0.0270
M4
G1 X28.419 Y7.407 F1500
M3
G1 X28.452 Y7.440 E0.0028 F2100
G1 X29.130 Y7.440 E0.0406
G1 X28.991 Y7.301 E0.0118
G1 X29.563 Y7.194 E0.0348
G1 X29.809 Y7.440 E0.0209
G1 X30.277 Y7.440 E0.0280
G1 X30.277 Y7.229 E0.0126
G1 X30.135 Y7.087 E0.0120
M4
G1 X31.167 Y7.440 F1500
M3
G1 X31.100 Y7.374 E0.0057 F2100
G1 X31.672 Y7.267 E0.0348
G1 X31.846 Y7.440 E0.0147
G1 X32.525 Y7.440 E0.0406
G1 X32.244 Y7.160 E0.0237
M4
G1 X33.882 Y7.440 F1500
M3
G1 X33.782 Y7.340 E0.0085 F2100
G1 X34.354 Y7.233 E0.0348
G1 X34.561 Y7.440 E0.0176
G1 X35.240 Y7.440 E0.0406
G1 X34.926 Y7.126 E0.0266
M4
G1 X35.891 Y7.413 F1500
M3
G1 X35.919 Y7.440 E0.0024 F2100
G1 X36.597 Y7.440 E0.0406
G1 X36.463 Y7.306 E0.0114
G1 X37.035 Y7.199 E0.0348
G1 X37.276 Y7.440 E0.0204
G1 X37.777 Y7.440 E0.0300
G1 X37.777 Y7.262 E0.0107
G1 X37.607 Y7.093 E0.0144
M4
; feature outer perimeter
G1 X33.730 Y31.051 F1500
M3
G1 X36.132 Y31.695 E0.1489 F2100
G1 X38.454 Y32.586 E0.1489
G1 X40.669 Y33.715 E0.1489
G1 X42.755 Y35.069 E0.1489
G1 X44.688 Y36.634 E0.1489
G1 X46.447 Y38.393 E0.1489
G1 X48.012 Y40.326 E0.1489
G1 X49.366 Y42.411 E0.1489
G1 X50.495 Y44.627 E0.1489
G1 X51.386 Y46.949 E0.1489
G1 X52.030 Y49.351 E0.1489
G1 X52.419 Y51.808 E0.1489
G1 X52.549 Y54.291 E0.1489
G1 X52.419 Y56.775 E0.1489
G1 X52.030 Y59.231 E0.1489
G1 X51.386 Y61.633 E0.1489
G1 X50.495 Y63.955 E0.1489
G1 X49.366 Y66.171 E0.1489
G1 X48.012 Y68.257 E0.1489
G1 X46.446 Y70.190 E0.1489
G1 X44.688 Y71.948 E0.1489
G1 X42.755 Y73.513 E0.1489
G1 X40.669 Y74.868 E0.1489
G1 X38.454 Y75.997 E0.1489
G1 X36.132 Y76.888 E0.1489
G1 X33.729 Y77.532 E0.1489
G1 X31.273 Y77.921 E0.1489
G1 X28.790 Y78.051 E0.1489
G1 X26.306 Y77.921 E0.1489
G1 X23.850 Y77.532 E0.1489
G1 X21.447 Y76.888 E0.1489
G1 X19.126 Y75.997 E0.1489
G1 X16.910 Y74.868 E0.1489
G1 X14.824 Y73.513 E0.1489
G1 X12.891 Y71.948 E0.1489
G1 X11.133 Y70.190 E0.1489
G1 X9.568 Y68.257 E0.1489
G1 X8.213 Y66.171 E0.1489
G1 X7.084 Y63.955 E0.1489
G1 X6.193 Y61.633 E0.1489
G1 X5.549 Y59.231 E0.1489
G1 X5.160 Y56.775 E0.1489
G1 X5.030 Y54.291 E0.1489
G1 X5.160 Y51.808 E0.1489
G1 X5.549 Y49.351 E0.1489
G1 X6.193 Y46.949 E0.1489
G1 X7.084 Y44.627 E0.1489
G1 X8.213 Y42.411 E0.1489
G1 X9.568 Y40.326 E0.1489
G1 X11.133 Y38.393 E0.1489
G1 X12.891 Y36.634 E0.1489
G1 X14.824 Y35.069 E0.1489
G1 X16.910 Y33.715 E0.1489
G1 X19.126 Y32.586 E0.1489
G1 X21.447 Y31.695 E0.1489
G1 X23.850 Y31.051 E0.1489
G1 X26.306 Y30.662 E0.1489
G1 X28.790 Y30.532 E0.1489
G1 X31.273 Y30.662 E0.1489
G1 X33.730 Y31.051 E0.1489
M4
G1 X33.596 Y32.065 F1500
M3
G1 X31.207 Y31.680 E0.1449 F2100
G1 X28.790 Y31.551 E0.1449
G1 X26.372 Y31.680 E0.1449
G1 X23.983 Y32.065 E0.1449
G1 X21.647 Y32.702 E0.1449
G1 X19.393 Y33.583 E0.1449
G1 X17.245 Y34.699 E0.1449
G1 X15.228 Y36.037 E0.1449
G1 X13.365 Y37.582 E0.1449
G1 X11.676 Y39.317 E0.1449
G1 X10.181 Y41.220 E0.1449
G1 X8.897 Y43.272 E0.1449
G1 X7.839 Y45.449 E0.1449
G1 X7.009 Y47.761 E0.1471
G1 X6.443 Y50.078 E0.1428
G1 X6.122 Y52.477 E0.1449
G1 X6.057 Y54.897 E0.1449
G1 X6.250 Y57.310 E0.1449
G1 X6.699 Y59.688 E0.1449
G1 X7.398 Y62.006 E0.1449
G1 X8.339 Y64.236 E0.1449
G1 X9.512 Y66.353 E0.1449
G1 X10.903 Y68.334 E0.1449
G1 X12.497 Y70.156 E0.1449
G1 X14.276 Y71.798 E0.1449
G1 X16.219 Y73.241 E0.1449
G1 X18.304 Y74.470 E0.1449
G1 X20.508 Y75.470 E0.1449
G1 X22.807 Y76.230 E0.1449
G1 X25.172 Y76.742 E0.1449
G1 X27.576 Y76.999 E0.1447
G1 X28.790 Y77.031 E0.0727
G1 X30.003 Y76.999 E0.0727
G1 X32.407 Y76.742 E0.1447
G1 X34.773 Y76.230 E0.1449
G1 X37.071 Y75.470 E0.1449
G1 X39.275 Y74.470 E0.1449
G1 X41.360 Y73.241 E0.1449
G1 X43.303 Y71.798 E0.1449
G1 X45.082 Y70.156 E0.1449
G1 X46.676 Y68.334 E0.1449
G1 X48.067 Y66.353 E0.1449
G1 X49.240 Y64.236 E0.1449
G1 X50.181 Y62.006 E0.1449
G1 X50.880 Y59.688 E0.1449
G1 X51.329 Y57.310 E0.1449
G1 X51.522 Y54.897 E0.1449
G1 X51.457 Y52.477 E0.1449
G1 X51.136 Y50.078 E0.1449
G1 X50.562 Y47.726 E0.1449
G1 X49.741 Y45.449 E0.1449
G1 X48.682 Y43.272 E0.1449
G1 X47.398 Y41.220 E0.1449
G1 X45.903 Y39.317 E0.1449
G1 X44.215 Y37.582 E0.1449
G1 X42.351 Y36.037 E0.1449
G1 X40.334 Y34.699 E0.1449
G1 X38.186 Y33.583 E0.1449
G1 X35.932 Y32.702 E0.1449
G1 X33.596 Y32.065 E0.1449
M4
; feature gap fill
G1 X41.735 Y34.979 F1500
M3
G1 X41.953 Y35.198 E0.0185 F2100
G1 X40.578 Y34.285 E0.0988
G1 X40.129 Y34.052 E0.0303
G1 X39.979 Y33.902 E0.0127
G1 X38.595 Y33.196 E0.0930
G1 X38.716 Y33.317 E0.0102
G1 X38.385 Y33.145 E0.0223
G1 X37.531 Y32.812 E0.0549
G1 X37.424 Y32.705 E0.0090
G1 X36.323 Y32.282 E0.0707
G1 X36.416 Y32.376 E0.0079
G1 X36.083 Y32.245 E0.0215
G1 X35.429 Y32.067 E0.0406
G1 X35.342 Y31.980 E0.0074
G1 X34.414 Y31.731 E0.0575
G1 X34.495 Y31.812 E0.0069
G1 X33.698 Y31.595 E0.0495
G1 X33.580 Y31.576 E0.0072
G1 X33.506 Y31.501 E0.0063
G1 X32.699 Y31.374 E0.0489
G1 X32.771 Y31.446 E0.0061
G1 X31.962 Y31.315 E0.0491
G1 X31.892 Y31.246 E0.0059
G1 X31.223 Y31.140 E0.0406
G1 X31.101 Y31.133 E0.0073
G1 X31.165 Y31.197 E0.0054
G1 X30.448 Y31.159 E0.0430
G1 X30.385 Y31.096 E0.0053
G1 X29.668 Y31.058 E0.0429
G1 X29.731 Y31.120 E0.0053
G1 X29.013 Y31.082 E0.0430
G1 X28.952 Y31.021 E0.0052
G1 X28.790 Y31.012 E0.0097
G1 X28.291 Y31.038 E0.0299
G1 X28.346 Y31.094 E0.0047
G1 X27.702 Y31.128 E0.0386
G1 X27.646 Y31.072 E0.0047
G1 X27.001 Y31.106 E0.0387
G1 X27.057 Y31.163 E0.0048
G1 X26.413 Y31.197 E0.0386
G1 X26.356 Y31.140 E0.0048
G1 X25.770 Y31.233 E0.0355
G1 X25.820 Y31.283 E0.0042
G1 X25.235 Y31.377 E0.0355
G1 X25.184 Y31.326 E0.0043
G1 X24.598 Y31.418 E0.0355
G1 X24.651 Y31.471 E0.0045
G1 X24.066 Y31.565 E0.0355
G1 X24.012 Y31.511 E0.0046
G1 X23.950 Y31.521 E0.0038
G1 X23.471 Y31.649 E0.0297
G1 X23.516 Y31.694 E0.0038
G1 X22.983 Y31.840 E0.0331
G1 X22.936 Y31.793 E0.0040
G1 X22.400 Y31.936 E0.0332
G1 X22.450 Y31.985 E0.0042
G1 X21.916 Y32.131 E0.0331
G1 X21.865 Y32.080 E0.0043
G1 X21.596 Y32.152 E0.0167
G1 X21.352 Y32.245 E0.0157
G1 X21.393 Y32.286 E0.0034
G1 X20.904 Y32.477 E0.0314
G1 X20.861 Y32.434 E0.0037
G1 X20.371 Y32.622 E0.0315
G1 X20.416 Y32.668 E0.0039
G1 X19.928 Y32.858 E0.0314
G1 X19.880 Y32.810 E0.0041
G1 X19.390 Y32.999 E0.0315
G1 X19.440 Y33.049 E0.0043
G1 X19.194 Y33.145 E0.0158
G1 X18.973 Y33.261 E0.0149
G1 X18.934 Y33.222 E0.0033
G1 X18.485 Y33.451 E0.0302
G1 X18.526 Y33.493 E0.0035
G1 X18.080 Y33.725 E0.0301
G1 X18.035 Y33.680 E0.0038
G1 X17.585 Y33.909 E0.0302
G1 X17.633 Y33.957 E0.0040
G1 X17.186 Y34.189 E0.0301
G1 X17.137 Y34.140 E0.0042
G1 X16.725 Y34.407 E0.0294
G1 X16.762 Y34.444 E0.0031
G1 X16.354 Y34.714 E0.0293
G1 X16.314 Y34.674 E0.0034
G1 X15.902 Y34.941 E0.0294
G1 X15.946 Y34.985 E0.0037
G1 X15.538 Y35.256 E0.0293
G1 X15.491 Y35.209 E0.0040
G1 X15.106 Y35.458 E0.0274
G1 X15.081 Y35.478 E0.0019
G1 X15.130 Y35.527 E0.0041
G1 X14.941 Y35.652 E0.0135
G1 X14.741 Y35.817 E0.0155
G1 X14.706 Y35.782 E0.0030
G1 X14.331 Y36.086 E0.0289
G1 X14.370 Y36.125 E0.0033
G1 X13.999 Y36.433 E0.0289
