; G-Code generated by Simplify3D(R) Version 4.0.0
; Feb 11, 2022 at 2:49:20 PM
; Settings Summary
;   processName,Process1
;   applyToModels,Beam_70x5x1,Beam_70x5x1(2),Beam_70x5x1(3),Beam_70x5x1(4),Beam_70x5x1(5),Beam_70x5x1(6),Beam_70x5x1(7),Beam_70x5x1(8)
;   profileName,Default (modified)
;   profileVersion,2019-04-05 17:35:25
;   baseProfile,MakerGear M2 (24V V4 hotend) (modified)
;   printMaterial,PLA
;   printQuality,Medium
;   printExtruders,
;   extruderName,Primary Extruder,Support Nozzle
;   extruderToolheadNumber,0,1
;   extruderDiameter,0.3,0.6
;   extruderAutoWidth,0,1
;   extruderWidth,0.25,0.72
;   extrusionMultiplier,1,0.67
;   extruderUseRetract,1,1
;   extruderRetractionDistance,1,2
;   extruderExtraRestartDistance,0,0
;   extruderRetractionZLift,0,0
;   extruderRetractionSpeed,2400,1800
;   extruderUseCoasting,0,0
;   extruderCoastingDistance,0.2,0.2
;   extruderUseWipe,0,0
;   extruderWipeDistance,5,5
;   primaryExtruder,0
;   layerHeight,0.3
;   topSolidLayers,0
;   bottomSolidLayers,0
;   perimeterOutlines,1
;   printPerimetersInsideOut,1
;   startPointOption,2
;   startPointOriginX,0
;   startPointOriginY,0
;   sequentialIslands,0
;   spiralVaseMode,0
;   firstLayerHeightPercentage,100
;   firstLayerWidthPercentage,100
;   firstLayerUnderspeed,1
;   useRaft,0
;   raftExtruder,0
;   raftTopLayers,3
;   raftBaseLayers,2
;   raftOffset,3
;   raftSeparationDistance,0.14
;   raftTopInfill,100
;   aboveRaftSpeedMultiplier,0.3
;   useSkirt,0
;   skirtExtruder,0
;   skirtLayers,1
;   skirtOutlines,2
;   skirtOffset,4
;   usePrimePillar,0
;   primePillarExtruder,999
;   primePillarWidth,12
;   primePillarLocation,7
;   primePillarSpeedMultiplier,1
;   useOozeShield,0
;   oozeShieldExtruder,999
;   oozeShieldOffset,2
;   oozeShieldOutlines,1
;   oozeShieldSidewallShape,1
;   oozeShieldSidewallAngle,30
;   oozeShieldSpeedMultiplier,1
;   infillExtruder,0
;   internalInfillPattern,Rectilinear
;   externalInfillPattern,Rectilinear
;   infillPercentage,100
;   outlineOverlapPercentage,0
;   infillExtrusionWidthPercentage,100
;   minInfillLength,1
;   infillLayerInterval,1
;   internalInfillAngles,90
;   overlapInternalInfillAngles,0
;   externalInfillAngles,0
;   generateSupport,0
;   supportExtruder,1
;   supportInfillPercentage,40
;   supportExtraInflation,0.5
;   supportBaseLayers,0
;   denseSupportExtruder,1
;   denseSupportLayers,0
;   denseSupportInfillPercentage,70
;   supportLayerInterval,1
;   supportHorizontalPartOffset,0.5
;   supportUpperSeparationLayers,0
;   supportLowerSeparationLayers,0
;   supportType,0
;   supportGridSpacing,4
;   maxOverhangAngle,0
;   supportAngles,45,-45
;   temperatureName,Primary Extruder
;   temperatureNumber,0
;   temperatureSetpointCount,1
;   temperatureSetpointLayers,1
;   temperatureSetpointTemperatures,0
;   temperatureStabilizeAtStartup,1
;   temperatureHeatedBed,0
;   temperatureRelayBetweenLayers,0
;   temperatureRelayBetweenLoops,0
;   fanLayers,1,2
;   fanSpeeds,0,100
;   blipFanToFullPower,1
;   adjustSpeedForCooling,0
;   minSpeedLayerTime,15
;   minCoolingSpeedSlowdown,20
;   increaseFanForCooling,0
;   minFanLayerTime,45
;   maxCoolingFanSpeed,100
;   increaseFanForBridging,0
;   bridgingFanSpeed,100
;   use5D,1
;   relativeEdistances,1
;   allowEaxisZeroing,1
;   independentExtruderAxes,0
;   includeM10123,0
;   stickySupport,1
;   applyToolheadOffsets,1
;   gcodeXoffset,0
;   gcodeYoffset,0
;   gcodeZoffset,0
;   overrideMachineDefinition,1
;   machineTypeOverride,0
;   strokeXoverride,200
;   strokeYoverride,250
;   strokeZoverride,200
;   originOffsetXoverride,0
;   originOffsetYoverride,0
;   originOffsetZoverride,0
;   homeXdirOverride,-1
;   homeYdirOverride,-1
;   homeZdirOverride,-1
;   flipXoverride,1
;   flipYoverride,-1
;   flipZoverride,1
;   toolheadOffsets,0,0|-37.1,-5.5|0,0|0,0|0,0|0,0
;   overrideFirmwareConfiguration,1
;   firmwareTypeOverride,RepRap (Marlin/Repetier/Sprinter)
;   GPXconfigOverride,r2
;   baudRateOverride,115200
;   overridePrinterModels,1
;   printerModelsOverride,MakerGear_M2Single.stl
;   startingGcode,G28,G91,G1 X5 Y35 Z-125.3,G90,G92 X0 Y0 Z0,M50 S50
;   layerChangeGcode,
;   retractionGcode,
;   toolChangeGcode,
;   endingGcode,
;   exportFileFormat,gcode
;   celebration,0
;   celebrationSong,Random Song
;   postProcessing,{REPLACE "G1 E1.0000 F2400\n" "M3\n"},{REPLACE "G1 E-1.0000 F2400\n" "M4\n"},{REPLACE "G1 E2.0000 F1800\n" "M5\n"},{REPLACE "G1 E-2.0000 F1800\n" "M6\n"},{TOOL0REPLACE "G1 E3.0000 F1500\n" "M3\n"},{TOOL0REPLACE "G1 E-3.0000 F1500\n" "M4\n"},{TOOL1REPLACE "G1 E3.0000 F1500\n" "M5\n"},{TOOL1REPLACE "G1 E-3.0000 F1500\n" "M6\n"},{REPLACE "G1 E-3.0000 F1500\n" "M4\n"},{REPLACE "G1 E3.0000 F1500\n" "M5\n"}
;   defaultSpeed,360
;   outlineUnderspeed,1
;   solidInfillUnderspeed,1
;   supportUnderspeed,0.8
;   rapidXYspeed,2400
;   rapidZspeed,1500
;   minBridgingArea,50
;   bridgingExtraInflation,0
;   bridgingExtrusionMultiplier,1
;   bridgingSpeedMultiplier,1
;   useFixedBridgingAngle,0
;   fixedBridgingAngle,0
;   applyBridgingToPerimeters,0
;   filamentDiameters,1.75|1.75|1.75|1.75|1.75|1.75
;   filamentPricesPerKg,46|46|46|46|46|46
;   filamentDensities,1.25|1.25|1.25|1.25|1.25|1.25
;   useMinPrintHeight,0
;   minPrintHeight,0
;   useMaxPrintHeight,0
;   maxPrintHeight,0
;   useDiaphragm,0
;   diaphragmLayerInterval,20
;   robustSlicing,1
;   mergeAllIntoSolid,0
;   onlyRetractWhenCrossingOutline,0
;   retractBetweenLayers,1
;   useRetractionMinTravel,0
;   retractionMinTravel,3
;   retractWhileWiping,0
;   onlyWipeOutlines,1
;   avoidCrossingOutline,0
;   maxMovementDetourFactor,3
;   toolChangeRetractionDistance,3
;   toolChangeExtraRestartDistance,0
;   toolChangeRetractionSpeed,1500
;   externalThinWallType,0
;   internalThinWallType,2
;   thinWallAllowedOverlapPercentage,10
;   singleExtrusionMinLength,1
;   singleExtrusionMinPrintingWidthPercentage,50
;   singleExtrusionMaxPrintingWidthPercentage,200
;   singleExtrusionEndpointExtension,0.2
;   horizontalSizeCompensation,0
G90
M83
M106 S255
G4 P500
M106 S0
M104 S0 T0
G28
G91
G1 X40 Y40 Z-125.5
G90
G92 X0 Y0 Z0
M50 S50
M4
G1 Z0.300 F1500
; process Process1
; layer 1, Z = 0.300
T0
; tool H0.300 W0.250
; outer perimeter
G1 X10.354 Y4.134 F2400
M3
G1 X10.354 Y63.384 E1.8475 F360
G1 X10.104 Y63.384 E0.0078
G1 X10.104 Y4.134 E1.8475
G1 X9.854 Y4.134 E0.0078
G1 X9.854 Y63.384 E1.8475
G1 X9.604 Y63.384 E0.0078
G1 X9.604 Y4.134 E1.8475
G1 X9.354 Y4.134 E0.0078
G1 X9.354 Y63.384 E1.8475
G1 X9.104 Y63.384 E0.0078
G1 X9.104 Y4.134 E1.8475
G1 X8.854 Y4.134 E0.0078
G1 X8.854 Y63.384 E1.8475
G1 X8.604 Y63.384 E0.0078
G1 X8.604 Y4.134 E1.8475
G1 X8.354 Y4.134 E0.0078
G1 X8.354 Y63.384 E1.8475
G1 X8.104 Y63.384 E0.0078
G1 X8.104 Y4.134 E1.8475
G1 X7.854 Y4.134 E0.0078
G1 X7.854 Y63.384 E1.8475
G1 X7.604 Y63.384 E0.0078
G1 X7.604 Y4.134 E1.8475
G1 X7.354 Y4.134 E0.0078
G1 X7.354 Y63.384 E1.8475
M4
; outer perimeter
G1 X16.979 Y63.634 F2400
M3
G1 X16.979 Y3.884 E1.8631 F360
G1 X20.729 Y3.884 E0.1169
G1 X20.729 Y63.634 E1.8631
G1 X16.979 Y63.634 E0.1169
M4
; infill
G1 X17.354 Y63.384 F2400
M3
G1 X17.354 Y4.134 E1.8475 F360
G1 X17.604 Y4.134 E0.0078
G1 X17.604 Y63.384 E1.8475
G1 X17.854 Y63.384 E0.0078
G1 X17.854 Y4.134 E1.8475
G1 X18.104 Y4.134 E0.0078
G1 X18.104 Y63.384 E1.8475
G1 X18.354 Y63.384 E0.0078
G1 X18.354 Y4.134 E1.8475
G1 X18.604 Y4.134 E0.0078
G1 X18.604 Y63.384 E1.8475
G1 X18.854 Y63.384 E0.0078
G1 X18.854 Y4.134 E1.8475
G1 X19.104 Y4.134 E0.0078
G1 X19.104 Y63.384 E1.8475
G1 X19.354 Y63.384 E0.0078
G1 X19.354 Y4.134 E1.8475
G1 X19.604 Y4.134 E0.0078
G1 X19.604 Y63.384 E1.8475
G1 X19.854 Y63.384 E0.0078
G1 X19.854 Y4.134 E1.8475
G1 X20.104 Y4.134 E0.0078
G1 X20.104 Y63.384 E1.8475
G1 X20.354 Y63.384 E0.0078
G1 X20.354 Y4.134 E1.8475
M4
; outer perimeter
G1 X26.979 Y3.884 F2400
M3
G1 X30.729 Y3.884 E0.1169 F360
G1 X30.729 Y63.634 E1.8631
G1 X26.979 Y63.634 E0.1169
G1 X26.979 Y3.884 E1.8631
M4
; infill
G1 X30.354 Y4.134 F2400
M3
G1 X30.354 Y63.384 E1.8475 F360
G1 X30.104 Y63.384 E0.0078
G1 X30.104 Y4.134 E1.8475
G1 X29.854 Y4.134 E0.0078
G1 X29.854 Y63.384 E1.8475
G1 X29.604 Y63.384 E0.0078
G1 X29.604 Y4.134 E1.8475
G1 X29.354 Y4.134 E0.0078
G1 X29.354 Y63.384 E1.8475
G1 X29.104 Y63.384 E0.0078
G1 X29.104 Y4.134 E1.8475
G1 X28.854 Y4.134 E0.0078
G1 X28.854 Y63.384 E1.8475
G1 X28.604 Y63.384 E0.0078
G1 X28.604 Y4.134 E1.8475
G1 X28.354 Y4.134 E0.0078
G1 X28.354 Y63.384 E1.8475
G1 X28.104 Y63.384 E0.0078
G1 X28.104 Y4.134 E1.8475
G1 X27.854 Y4.134 E0.0078
G1 X27.854 Y63.384 E1.8475
G1 X27.604 Y63.384 E0.0078
G1 X27.604 Y4.134 E1.8475
G1 X27.354 Y4.134 E0.0078
G1 X27.354 Y63.384 E1.8475
M4
; outer perimeter
G1 X36.979 Y63.634 F2400
M3
G1 X36.979 Y3.884 E1.8631 F360
G1 X40.729 Y3.884 E0.1169
G1 X40.729 Y63.634 E1.8631
G1 X36.979 Y63.634 E0.1169
M4
; infill
G1 X37.354 Y63.384 F2400
M3
G1 X37.354 Y4.134 E1.8475 F360
G1 X37.604 Y4.134 E0.0078
G1 X37.604 Y63.384 E1.8475
G1 X37.854 Y63.384 E0.0078
G1 X37.854 Y4.134 E1.8475
G1 X38.104 Y4.134 E0.0078
G1 X38.104 Y63.384 E1.8475
G1 X38.354 Y63.384 E0.0078
G1 X38.354 Y4.134 E1.8475
G1 X38.604 Y4.134 E0.0078
G1 X38.604 Y63.384 E1.8475
G1 X38.854 Y63.384 E0.0078
G1 X38.854 Y4.134 E1.8475
G1 X39.104 Y4.134 E0.0078
G1 X39.104 Y63.384 E1.8475
G1 X39.354 Y63.384 E0.0078
G1 X39.354 Y4.134 E1.8475
G1 X39.604 Y4.134 E0.0078
G1 X39.604 Y63.384 E1.8475
G1 X39.854 Y63.384 E0.0078
G1 X39.854 Y4.134 E1.8475
G1 X40.104 Y4.134 E0.0078
G1 X40.104 Y63.384 E1.8475
G1 X40.354 Y63.384 E0.0078
G1 X40.354 Y4.134 E1.8475
M4
; outer perimeter
G1 X46.979 Y3.884 F2400
M3
G1 X50.729 Y3.884 E0.1169 F360
G1 X50.729 Y63.634 E1.8631
G1 X46.979 Y63.634 E0.1169
G1 X46.979 Y3.884 E1.8631
M4
; infill
G1 X50.354 Y4.134 F2400
M3
G1 X50.354 Y63.384 E1.8475 F360
G1 X50.104 Y63.384 E0.0078
G1 X50.104 Y4.134 E1.8475
G1 X49.854 Y4.134 E0.0078
G1 X49.854 Y63.384 E1.8475
G1 X49.604 Y63.384 E0.0078
G1 X49.604 Y4.134 E1.8475
G1 X49.354 Y4.134 E0.0078
G1 X49.354 Y63.384 E1.8475
G1 X49.104 Y63.384 E0.0078
G1 X49.104 Y4.134 E1.8475
G1 X48.854 Y4.134 E0.0078
G1 X48.854 Y63.384 E1.8475
G1 X48.604 Y63.384 E0.0078
G1 X48.604 Y4.134 E1.8475
G1 X48.354 Y4.134 E0.0078
G1 X48.354 Y63.384 E1.8475
G1 X48.104 Y63.384 E0.0078
G1 X48.104 Y4.134 E1.8475
G1 X47.854 Y4.134 E0.0078
G1 X47.854 Y63.384 E1.8475
G1 X47.604 Y63.384 E0.0078
G1 X47.604 Y4.134 E1.8475
G1 X47.354 Y4.134 E0.0078
G1 X47.354 Y63.384 E1.8475
M4
; outer perimeter
G1 X56.979 Y63.634 F2400
M3
G1 X56.979 Y3.884 E1.8631 F360
G1 X60.729 Y3.884 E0.1169
G1 X60.729 Y63.634 E1.8631
G1 X56.979 Y63.634 E0.1169
M4
; infill
G1 X57.354 Y63.384 F2400
M3
G1 X57.354 Y4.134 E1.8475 F360
G1 X57.604 Y4.134 E0.0078
G1 X57.604 Y63.384 E1.8475
G1 X57.854 Y63.384 E0.0078
G1 X57.854 Y4.134 E1.8475
G1 X58.104 Y4.134 E0.0078
G1 X58.104 Y63.384 E1.8475
G1 X58.354 Y63.384 E0.0078
G1 X58.354 Y4.134 E1.8475
G1 X58.604 Y4.134 E0.0078
G1 X58.604 Y63.384 E1.8475
G1 X58.854 Y63.384 E0.0078
G1 X58.854 Y4.134 E1.8475
G1 X59.104 Y4.134 E0.0078
G1 X59.104 Y63.384 E1.8475
G1 X59.354 Y63.384 E0.0078
G1 X59.354 Y4.134 E1.8475
G1 X59.604 Y4.134 E0.0078
G1 X59.604 Y63.384 E1.8475
G1 X59.854 Y63.384 E0.0078
G1 X59.854 Y4.134 E1.8475
G1 X60.104 Y4.134 E0.0078
G1 X60.104 Y63.384 E1.8475
G1 X60.354 Y63.384 E0.0078
G1 X60.354 Y4.134 E1.8475
M4
; outer perimeter
G1 X66.979 Y3.884 F2400
M3
G1 X70.729 Y3.884 E0.1169 F360
G1 X70.729 Y63.634 E1.8631
G1 X66.979 Y63.634 E0.1169
G1 X66.979 Y3.884 E1.8631
M4
; infill
G1 X70.354 Y4.134 F2400
M3
G1 X70.354 Y63.384 E1.8475 F360
G1 X70.104 Y63.384 E0.0078
G1 X70.104 Y4.134 E1.8475
G1 X69.854 Y4.134 E0.0078
G1 X69.854 Y63.384 E1.8475
G1 X69.604 Y63.384 E0.0078
G1 X69.604 Y4.134 E1.8475
G1 X69.354 Y4.134 E0.0078
G1 X69.354 Y63.384 E1.8475
G1 X69.104 Y63.384 E0.0078
G1 X69.104 Y4.134 E1.8475
G1 X68.854 Y4.134 E0.0078
G1 X68.854 Y63.384 E1.8475
G1 X68.604 Y63.384 E0.0078
G1 X68.604 Y4.134 E1.8475
G1 X68.354 Y4.134 E0.0078
G1 X68.354 Y63.384 E1.8475
G1 X68.104 Y63.384 E0.0078
G1 X68.104 Y4.134 E1.8475
G1 X67.854 Y4.134 E0.0078
G1 X67.854 Y63.384 E1.8475
G1 X67.604 Y63.384 E0.0078
G1 X67.604 Y4.134 E1.8475
G1 X67.354 Y4.134 E0.0078
G1 X67.354 Y63.384 E1.8475
M4
; outer perimeter
G1 X76.979 Y63.634 F2400
M3
G1 X76.979 Y3.884 E1.8631 F360
G1 X80.729 Y3.884 E0.1169
G1 X80.729 Y63.634 E1.8631
G1 X76.979 Y63.634 E0.1169
M4
; infill
G1 X77.354 Y63.384 F2400
M3
G1 X77.354 Y4.134 E1.8475 F360
G1 X77.604 Y4.134 E0.0078
G1 X77.604 Y63.384 E1.8475
G1 X77.854 Y63.384 E0.0078
G1 X77.854 Y4.134 E1.8475
G1 X78.104 Y4.134 E0.0078
G1 X78.104 Y63.384 E1.8475
G1 X78.354 Y63.384 E0.0078
G1 X78.354 Y4.134 E1.8475
G1 X78.604 Y4.134 E0.0078
G1 X78.604 Y63.384 E1.8475
G1 X78.854 Y63.384 E0.0078
G1 X78.854 Y4.134 E1.8475
G1 X79.104 Y4.134 E0.0078
G1 X79.104 Y63.384 E1.8475
G1 X79.354 Y63.384 E0.0078
G1 X79.354 Y4.134 E1.8475
G1 X79.604 Y4.134 E0.0078
G1 X79.604 Y63.384 E1.8475
G1 X79.854 Y63.384 E0.0078
G1 X79.854 Y4.134 E1.8475
G1 X80.104 Y4.134 E0.0078
G1 X80.104 Y63.384 E1.8475
G1 X80.354 Y63.384 E0.0078
G1 X80.354 Y4.134 E1.8475
M4
; layer 2, Z = 0.600
M106 S255
; outer perimeter
G1 X80.729 Y3.884 F2400
G1 Z0.600 F1500
M3
G1 X80.729 Y63.634 E1.8631 F360
G1 X76.979 Y63.634 E0.1169
G1 X76.979 Y3.884 E1.8631
G1 X80.729 Y3.884 E0.1169
M4
; infill
G1 X80.354 Y4.134 F2400
M3
G1 X80.354 Y63.384 E1.8475 F360
G1 X80.104 Y63.384 E0.0078
G1 X80.104 Y4.134 E1.8475
G1 X79.854 Y4.134 E0.0078
G1 X79.854 Y63.384 E1.8475
G1 X79.604 Y63.384 E0.0078
G1 X79.604 Y4.134 E1.8475
G1 X79.354 Y4.134 E0.0078
G1 X79.354 Y63.384 E1.8475
G1 X79.104 Y63.384 E0.0078
G1 X79.104 Y4.134 E1.8475
G1 X78.854 Y4.134 E0.0078
G1 X78.854 Y63.384 E1.8475
G1 X78.604 Y63.384 E0.0078
G1 X78.604 Y4.134 E1.8475
G1 X78.354 Y4.134 E0.0078
G1 X78.354 Y63.384 E1.8475
G1 X78.104 Y63.384 E0.0078
G1 X78.104 Y4.134 E1.8475
G1 X77.854 Y4.134 E0.0078
G1 X77.854 Y63.384 E1.8475
G1 X77.604 Y63.384 E0.0078
G1 X77.604 Y4.134 E1.8475
G1 X77.354 Y4.134 E0.0078
G1 X77.354 Y63.384 E1.8475
M4
; outer perimeter
G1 X70.729 Y63.634 F2400
M3
G1 X66.979 Y63.634 E0.1169 F360
G1 X66.979 Y3.884 E1.8631
G1 X70.729 Y3.884 E0.1169
G1 X70.729 Y63.634 E1.8631
M4
; infill
G1 X67.354 Y63.384 F2400
M3
G1 X67.354 Y4.134 E1.8475 F360
G1 X67.604 Y4.134 E0.0078
G1 X67.604 Y63.384 E1.8475
G1 X67.854 Y63.384 E0.0078
G1 X67.854 Y4.134 E1.8475
G1 X68.104 Y4.134 E0.0078
G1 X68.104 Y63.384 E1.8475
G1 X68.354 Y63.384 E0.0078
G1 X68.354 Y4.134 E1.8475
G1 X68.604 Y4.134 E0.0078
G1 X68.604 Y63.384 E1.8475
G1 X68.854 Y63.384 E0.0078
G1 X68.854 Y4.134 E1.8475
G1 X69.104 Y4.134 E0.0078
G1 X69.104 Y63.384 E1.8475
G1 X69.354 Y63.384 E0.0078
G1 X69.354 Y4.134 E1.8475
G1 X69.604 Y4.134 E0.0078
G1 X69.604 Y63.384 E1.8475
G1 X69.854 Y63.384 E0.0078
G1 X69.854 Y4.134 E1.8475
G1 X70.104 Y4.134 E0.0078
G1 X70.104 Y63.384 E1.8475
G1 X70.354 Y63.384 E0.0078
G1 X70.354 Y4.134 E1.8475
M4
; outer perimeter
G1 X60.729 Y3.884 F2400
M3
G1 X60.729 Y63.634 E1.8631 F360
G1 X56.979 Y63.634 E0.1169
G1 X56.979 Y3.884 E1.8631
G1 X60.729 Y3.884 E0.1169
M4
; infill
G1 X60.354 Y4.134 F2400
M3
G1 X60.354 Y63.384 E1.8475 F360
G1 X60.104 Y63.384 E0.0078
G1 X60.104 Y4.134 E1.8475
G1 X59.854 Y4.134 E0.0078
G1 X59.854 Y63.384 E1.8475
G1 X59.604 Y63.384 E0.0078
G1 X59.604 Y4.134 E1.8475
G1 X59.354 Y4.134 E0.0078
G1 X59.354 Y63.384 E1.8475
G1 X59.104 Y63.384 E0.0078
G1 X59.104 Y4.134 E1.8475
G1 X58.854 Y4.134 E0.0078
G1 X58.854 Y63.384 E1.8475
G1 X58.604 Y63.384 E0.0078
G1 X58.604 Y4.134 E1.8475
G1 X58.354 Y4.134 E0.0078
G1 X58.354 Y63.384 E1.8475
