; G-Code generated by Simplify3D(R) Version 4.1.1
; May 7, 2021 at 6:13:34 PM
; Settings Summary
;   processName,Process1
;   applyToModels,constrain_ring_5.5radius,constrain_ring_5.5radius(2),constrain_ring_5.5radius(3),constrain_ring_5.5radius(2)(2),constrain_ring_5.5radius(4),constrain_ring_5.5radius(2)(3),constrain_ring_5.5radius(3)(2),constrain_ring_5.5radius(2)(2)(2)
;   profileName,Default (modified)
;   profileVersion,2019-02-19 09:52:41
;   baseProfile,MakerGear M2 (24V V4 hotend) (modified)
;   printMaterial,PLA
;   printQuality,Medium
;   printExtruders,
;   extruderName,Primary Extruder
;   extruderToolheadNumber,0
;   extruderDiameter,0.6
;   extruderAutoWidth,0
;   extruderWidth,0.6
;   extrusionMultiplier,1
;   extruderUseRetract,1
;   extruderRetractionDistance,1
;   extruderExtraRestartDistance,0
;   extruderRetractionZLift,0
;   extruderRetractionSpeed,2400
;   extruderUseCoasting,0
;   extruderCoastingDistance,0.2
;   extruderUseWipe,0
;   extruderWipeDistance,5
;   primaryExtruder,0
;   layerHeight,0.45
;   topSolidLayers,0
;   bottomSolidLayers,0
;   perimeterOutlines,0
;   printPerimetersInsideOut,1
;   startPointOption,2
;   startPointOriginX,0
;   startPointOriginY,0
;   sequentialIslands,0
;   spiralVaseMode,0
;   firstLayerHeightPercentage,100
;   firstLayerWidthPercentage,100
;   firstLayerUnderspeed,1
;   useRaft,0
;   raftExtruder,0
;   raftTopLayers,3
;   raftBaseLayers,2
;   raftOffset,3
;   raftSeparationDistance,0.14
;   raftTopInfill,100
;   aboveRaftSpeedMultiplier,0.3
;   useSkirt,0
;   skirtExtruder,0
;   skirtLayers,1
;   skirtOutlines,2
;   skirtOffset,4
;   usePrimePillar,0
;   primePillarExtruder,999
;   primePillarWidth,12
;   primePillarLocation,7
;   primePillarSpeedMultiplier,1
;   useOozeShield,0
;   oozeShieldExtruder,999
;   oozeShieldOffset,2
;   oozeShieldOutlines,1
;   oozeShieldSidewallShape,1
;   oozeShieldSidewallAngle,30
;   oozeShieldSpeedMultiplier,1
;   infillExtruder,0
;   internalInfillPattern,Rectilinear
;   externalInfillPattern,Rectilinear
;   infillPercentage,40
;   outlineOverlapPercentage,99
;   infillExtrusionWidthPercentage,100
;   minInfillLength,1
;   infillLayerInterval,1
;   internalInfillAngles,45,-45
;   overlapInternalInfillAngles,0
;   externalInfillAngles,90,0
;   generateSupport,0
;   supportExtruder,0
;   supportInfillPercentage,35
;   supportExtraInflation,0.5
;   supportBaseLayers,0
;   denseSupportExtruder,0
;   denseSupportLayers,0
;   denseSupportInfillPercentage,70
;   supportLayerInterval,1
;   supportHorizontalPartOffset,0.5
;   supportUpperSeparationLayers,0
;   supportLowerSeparationLayers,0
;   supportType,1
;   supportGridSpacing,4
;   maxOverhangAngle,0
;   supportAngles,45,-45
;   temperatureName,Primary Extruder
;   temperatureNumber,0
;   temperatureSetpointCount,1
;   temperatureSetpointLayers,1
;   temperatureSetpointTemperatures,0
;   temperatureStabilizeAtStartup,1
;   temperatureHeatedBed,0
;   fanLayers,1
;   fanSpeeds,0
;   blipFanToFullPower,1
;   adjustSpeedForCooling,0
;   minSpeedLayerTime,15
;   minCoolingSpeedSlowdown,20
;   increaseFanForCooling,0
;   minFanLayerTime,45
;   maxCoolingFanSpeed,100
;   increaseFanForBridging,0
;   bridgingFanSpeed,100
;   use5D,1
;   relativeEdistances,1
;   allowEaxisZeroing,1
;   independentExtruderAxes,0
;   includeM10123,0
;   stickySupport,1
;   applyToolheadOffsets,1
;   gcodeXoffset,0
;   gcodeYoffset,0
;   gcodeZoffset,0
;   overrideMachineDefinition,1
;   machineTypeOverride,0
;   strokeXoverride,200
;   strokeYoverride,250
;   strokeZoverride,200
;   originOffsetXoverride,0
;   originOffsetYoverride,0
;   originOffsetZoverride,0
;   homeXdirOverride,-1
;   homeYdirOverride,-1
;   homeZdirOverride,-1
;   flipXoverride,1
;   flipYoverride,-1
;   flipZoverride,1
;   toolheadOffsets,0,0|-37.8,-5.6|0,0|0,0|0,0|0,0
;   overrideFirmwareConfiguration,1
;   firmwareTypeOverride,RepRap (Marlin/Repetier/Sprinter)
;   GPXconfigOverride,r2
;   baudRateOverride,115200
;   overridePrinterModels,1
;   printerModelsOverride,MakerGear_M2Single.stl
;   startingGcode,G28,G91,G1 X50 Y50 Z-99.7,G90,G92 X0 Y0 Z0,M50 S50
;   layerChangeGcode,
;   retractionGcode,
;   toolChangeGcode,
;   endingGcode,
;   exportFileFormat,gcode
;   celebration,0
;   celebrationSong,Random Song
;   postProcessing,{REPLACE "G1 E1.0000 F2400\n" "M3\n"},{REPLACE "G1 E-1.0000 F2400\n" "M4\n"},{REPLACE "G1 E2.0000 F1800\n" "M5\n"},{REPLACE "G1 E-2.0000 F1800\n" "M6\n"},{TOOL0REPLACE "G1 E3.0000 F1500\n" "M3\n"},{TOOL1REPLACE "G1 E-3.0000 F1500\n" "M4\n"},{TOOL0REPLACE "G1 E3.0000 F1500\n" "M5\n"},{TOOL1REPLACE "G1 E-3.0000 F1500\n" "M6\n"},{REPLACE "G1 E-3.0000 F1500\n" "M4\n"},{REPLACE "G1 E3.0000 F1500\n" "M5\n"}
;   defaultSpeed,2100
;   outlineUnderspeed,1
;   solidInfillUnderspeed,1
;   supportUnderspeed,0.5
;   rapidXYspeed,1500
;   rapidZspeed,1500
;   minBridgingArea,50
;   bridgingExtraInflation,0
;   bridgingExtrusionMultiplier,1
;   bridgingSpeedMultiplier,1
;   useFixedBridgingAngle,0
;   fixedBridgingAngle,0
;   applyBridgingToPerimeters,0
;   filamentDiameters,1.75|1.75|1.75|1.75|1.75|1.75
;   filamentPricesPerKg,46|46|46|46|46|46
;   filamentDensities,1.25|1.25|1.25|1.25|1.25|1.25
;   useMinPrintHeight,0
;   minPrintHeight,0
;   useMaxPrintHeight,0
;   maxPrintHeight,0
;   useDiaphragm,1
;   diaphragmLayerInterval,1
;   robustSlicing,1
;   mergeAllIntoSolid,0
;   onlyRetractWhenCrossingOutline,0
;   retractBetweenLayers,1
;   useRetractionMinTravel,0
;   retractionMinTravel,3
;   retractWhileWiping,0
;   onlyWipeOutlines,1
;   avoidCrossingOutline,0
;   maxMovementDetourFactor,3
;   toolChangeRetractionDistance,3
;   toolChangeExtraRestartDistance,0
;   toolChangeRetractionSpeed,1500
;   externalThinWallType,0
;   internalThinWallType,0
;   thinWallAllowedOverlapPercentage,10
;   singleExtrusionMinLength,1
;   singleExtrusionMinPrintingWidthPercentage,100
;   singleExtrusionMaxPrintingWidthPercentage,200
;   singleExtrusionEndpointExtension,0.2
;   horizontalSizeCompensation,0
G90
M83
M106 S0
M104 S0 T0
G28
G91
G1 X0 Y35 Z-124.9
G90
G92 X0 Y0 Z0
M50 S50
; process Process1
; layer 1, Z = 0.450
T0
M4
; feature solid layer
; tool H0.450 W0.600
G1 Z0.450 F1500
G1 X18.424 Y24.848 F1500
M3
G1 X18.424 Y22.566 E0.2562 F2100
G1 X18.534 Y22.029 E0.0615
G1 X18.737 Y21.382 E0.0761
G1 X19.004 Y20.759 E0.0761
G1 X19.024 Y20.724 E0.0045
G1 X19.024 Y26.689 E0.6696
G1 X19.333 Y27.247 E0.0716
G1 X19.624 Y27.665 E0.0570
G1 X19.624 Y25.859 E0.2027
G1 X19.603 Y25.813 E0.0056
G1 X19.398 Y25.183 E0.0744
G1 X19.266 Y24.533 E0.0744
G1 X19.210 Y23.873 E0.0744
G1 X19.229 Y23.210 E0.0744
G1 X19.323 Y22.554 E0.0744
G1 X19.492 Y21.912 E0.0744
G1 X19.624 Y21.573 E0.0409
G1 X19.624 Y19.749 E0.2048
G1 X19.721 Y19.610 E0.0191
G1 X20.162 Y19.095 E0.0761
G1 X20.224 Y19.037 E0.0095
G1 X20.224 Y20.442 E0.1577
G1 X20.416 Y20.161 E0.0382
G1 X20.824 Y19.690 E0.0699
G1 X20.824 Y18.497 E0.1340
G1 X21.190 Y18.213 E0.0520
G1 X21.424 Y18.067 E0.0309
G1 X21.424 Y19.150 E0.1215
G1 X21.875 Y18.822 E0.0626
G1 X22.024 Y18.738 E0.0192
G1 X22.024 Y17.728 E0.1134
G1 X22.374 Y17.556 E0.0438
G1 X22.624 Y17.463 E0.0299
G1 X22.624 Y18.423 E0.1078
G1 X23.063 Y18.238 E0.0535
G1 X23.224 Y18.191 E0.0188
G1 X23.224 Y17.265 E0.1039
G1 X23.666 Y17.150 E0.0513
G1 X23.824 Y17.126 E0.0179
G1 X23.824 Y18.030 E0.1014
G1 X24.352 Y17.938 E0.0602
G1 X24.424 Y17.934 E0.0081
G1 X24.424 Y17.043 E0.1000
G1 X25.014 Y17.013 E0.0663
G1 X25.024 Y17.014 E0.0011
G1 X25.024 Y17.906 E0.1002
G1 X25.624 Y17.935 E0.0674
G1 X25.624 Y17.044 E0.1001
G1 X25.639 Y17.045 E0.0017
G1 X26.224 Y17.130 E0.0663
G1 X26.224 Y18.033 E0.1013
G1 X26.329 Y18.051 E0.0120
G1 X26.824 Y18.196 E0.0579
G1 X26.824 Y17.270 E0.1040
G1 X27.018 Y17.320 E0.0225
G1 X27.424 Y17.470 E0.0486
G1 X27.424 Y18.432 E0.1079
G1 X27.576 Y18.496 E0.0185
G1 X28.024 Y18.749 E0.0577
G1 X28.024 Y17.737 E0.1136
G1 X28.262 Y17.854 E0.0298
G1 X28.624 Y18.079 E0.0478
G1 X28.624 Y19.164 E0.1217
G1 X28.689 Y19.212 E0.0091
G1 X29.178 Y19.660 E0.0744
G1 X29.224 Y19.713 E0.0078
G1 X29.224 Y18.512 E0.1348
G1 X29.374 Y18.628 E0.0213
G1 X29.824 Y19.055 E0.0697
G1 X29.824 Y20.471 E0.1588
G1 X29.986 Y20.708 E0.0323
G1 X30.296 Y21.295 E0.0744
G1 X30.424 Y21.623 E0.0396
G1 X30.424 Y19.777 E0.2072
G1 X30.694 Y20.166 E0.0532
G1 X31.023 Y20.759 E0.0761
G1 X31.024 Y26.654 E0.6618
G1 X31.291 Y26.031 E0.0761
G1 X31.494 Y25.385 E0.0761
G1 X31.624 Y24.753 E0.0724
G1 X31.624 Y22.661 E0.2348
M4
G1 X30.424 Y25.816 F1500
M3
G1 X30.424 Y27.636 E0.2044 F2100
G1 X30.307 Y27.804 E0.0229
G1 X29.865 Y28.318 E0.0761
G1 X29.824 Y28.358 E0.0065
G1 X29.824 Y26.957 E0.1573
G1 X29.807 Y26.984 E0.0036
G1 X29.402 Y27.509 E0.0744
G1 X29.224 Y27.693 E0.0287
G1 X29.224 Y28.902 E0.1357
G1 X28.838 Y29.201 E0.0548
G1 X28.624 Y29.334 E0.0283
G1 X28.624 Y28.243 E0.1224
G1 X28.427 Y28.404 E0.0285
G1 X28.024 Y28.663 E0.0538
G1 X28.024 Y29.676 E0.1137
G1 X27.654 Y29.858 E0.0463
G1 X27.424 Y29.943 E0.0275
G1 X27.424 Y28.982 E0.1079
G1 X27.274 Y29.055 E0.0187
G1 X26.824 Y29.216 E0.0537
G1 X26.824 Y30.144 E0.1041
G1 X26.361 Y30.263 E0.0536
G1 X26.224 Y30.284 E0.0156
G1 X26.224 Y29.377 E0.1018
G1 X26.004 Y29.428 E0.0253
G1 X25.624 Y29.472 E0.0430
G1 X25.624 Y30.369 E0.1008
G1 X25.024 Y30.400 E0.0674
G1 X25.024 Y29.513 E0.0996
G1 X25.014 Y29.513 E0.0011
G1 X24.678 Y29.503 E0.0377
G1 X24.424 Y29.474 E0.0287
G1 X24.424 Y30.370 E0.1006
G1 X24.337 Y30.366 E0.0098
G1 X23.824 Y30.287 E0.0583
G1 X23.824 Y29.382 E0.1017
G1 X23.378 Y29.278 E0.0514
G1 X23.224 Y29.223 E0.0184
G1 X23.224 Y30.149 E0.1039
G1 X23.010 Y30.093 E0.0248
G1 X22.624 Y29.950 E0.0463
G1 X22.624 Y28.991 E0.1076
G1 X22.159 Y28.763 E0.0582
G1 X22.024 Y28.676 E0.0180
G1 X22.024 Y29.686 E0.1134
G1 X21.765 Y29.559 E0.0323
G1 X21.424 Y29.346 E0.0452
G1 X21.424 Y28.259 E0.1220
G1 X21.088 Y27.985 E0.0487
G1 X20.824 Y27.713 E0.0425
G1 X20.824 Y28.917 E0.1352
G1 X20.654 Y28.786 E0.0241
G1 X20.224 Y28.377 E0.0666
G1 X20.224 Y26.988 E0.1559
M4
G1 X43.024 Y24.933 F1500
M3
G1 X43.024 Y22.132 E0.3144 F2100
G1 X43.081 Y21.855 E0.0318
G1 X43.284 Y21.208 E0.0761
G1 X43.551 Y20.585 E0.0761
G1 X43.624 Y20.454 E0.0168
G1 X43.624 Y26.612 E0.6912
G1 X43.880 Y27.074 E0.0593
G1 X44.224 Y27.567 E0.0675
G1 X44.224 Y25.801 E0.1982
G1 X44.150 Y25.639 E0.0200
G1 X43.945 Y25.009 E0.0744
G1 X43.813 Y24.359 E0.0744
G1 X43.756 Y23.699 E0.0744
G1 X43.775 Y23.036 E0.0744
G1 X43.870 Y22.380 E0.0744
G1 X44.038 Y21.739 E0.0744
G1 X44.224 Y21.262 E0.0574
G1 X44.224 Y19.499 E0.1980
G1 X44.267 Y19.436 E0.0086
G1 X44.709 Y18.921 E0.0761
G1 X44.824 Y18.812 E0.0177
G1 X44.824 Y20.190 E0.1547
G1 X44.962 Y19.987 E0.0276
G1 X45.397 Y19.486 E0.0744
G1 X45.424 Y19.461 E0.0041
G1 X45.424 Y18.281 E0.1324
G1 X45.737 Y18.039 E0.0444
G1 X46.024 Y17.860 E0.0380
G1 X46.024 Y18.937 E0.1209
G1 X46.421 Y18.648 E0.0552
G1 X46.624 Y18.534 E0.0261
G1 X46.624 Y17.528 E0.1130
G1 X46.921 Y17.382 E0.0372
G1 X47.224 Y17.270 E0.0362
G1 X47.224 Y18.227 E0.1075
G1 X47.609 Y18.064 E0.0470
G1 X47.824 Y18.001 E0.0251
G1 X47.824 Y17.077 E0.1037
G1 X48.213 Y16.976 E0.0452
G1 X48.424 Y16.944 E0.0239
G1 X48.424 Y17.846 E0.1013
G1 X48.899 Y17.764 E0.0541
G1 X49.024 Y17.757 E0.0141
G1 X49.024 Y16.866 E0.1000
G1 X49.561 Y16.839 E0.0603
G1 X49.624 Y16.842 E0.0071
G1 X49.624 Y17.735 E0.1001
G1 X50.221 Y17.764 E0.0672
G1 X50.224 Y16.876 E0.0999
G1 X50.824 Y16.964 E0.0681
G1 X50.824 Y17.868 E0.1015
G1 X50.876 Y17.877 E0.0059
G1 X51.424 Y18.038 E0.0641
G1 X51.424 Y17.110 E0.1042
G1 X51.564 Y17.146 E0.0163
G1 X52.024 Y17.316 E0.0550
G1 X52.024 Y18.280 E0.1082
G1 X52.123 Y18.322 E0.0120
G1 X52.624 Y18.605 E0.0646
G1 X52.624 Y17.589 E0.1140
G1 X52.809 Y17.680 E0.0232
G1 X53.224 Y17.939 E0.0548
G1 X53.224 Y19.029 E0.1223
G1 X53.236 Y19.038 E0.0017
G1 X53.725 Y19.486 E0.0744
G1 X53.824 Y19.600 E0.0170
G1 X53.824 Y18.379 E0.1371
G1 X53.921 Y18.454 E0.0138
G1 X54.412 Y18.921 E0.0761
G1 X54.424 Y18.935 E0.0020
G1 X54.424 Y20.375 E0.1616
G1 X54.533 Y20.534 E0.0217
G1 X54.842 Y21.121 E0.0744
G1 X55.024 Y21.586 E0.0561
G1 X55.024 Y19.680 E0.2140
G1 X55.241 Y19.992 E0.0427
G1 X55.570 Y20.585 E0.0761
G1 X55.624 Y20.710 E0.0152
G1 X55.624 Y26.356 E0.6338
G1 X55.838 Y25.858 E0.0609
G1 X56.041 Y25.211 E0.0761
G1 X56.177 Y24.546 E0.0761
G1 X56.224 Y24.088 E0.0518
G1 X56.224 Y22.978 E0.1245
M4
G1 X55.024 Y25.479 F1500
M3
G1 X55.024 Y27.386 E0.2141 F2100
G1 X54.854 Y27.630 E0.0334
G1 X54.424 Y28.131 E0.0741
G1 X54.424 Y26.694 E0.1613
G1 X54.354 Y26.810 E0.0152
G1 X53.949 Y27.335 E0.0744
G1 X53.824 Y27.464 E0.0202
G1 X53.824 Y28.687 E0.1372
G1 X53.384 Y29.027 E0.0624
G1 X53.224 Y29.127 E0.0213
G1 X53.224 Y28.026 E0.1236
G1 X52.974 Y28.230 E0.0363
G1 X52.624 Y28.455 E0.0467
G1 X52.624 Y29.476 E0.1146
G1 X52.200 Y29.684 E0.0529
G1 X52.024 Y29.749 E0.0211
G1 X52.024 Y28.782 E0.1086
G1 X51.821 Y28.881 E0.0254
G1 X51.424 Y29.023 E0.0473
G1 X51.424 Y29.956 E0.1047
G1 X50.908 Y30.089 E0.0598
G1 X50.824 Y30.102 E0.0096
G1 X50.824 Y29.191 E0.1023
G1 X50.551 Y29.254 E0.0315
G1 X50.224 Y29.292 E0.0370
G1 X50.224 Y30.193 E0.1011
G1 X49.624 Y30.223 E0.0674
G1 X49.624 Y29.337 E0.0995
G1 X49.561 Y29.339 E0.0071
G1 X49.225 Y29.329 E0.0377
G1 X49.024 Y29.306 E0.0227
G1 X49.024 Y30.199 E0.1002
G1 X48.883 Y30.192 E0.0158
G1 X48.424 Y30.122 E0.0522
G1 X48.424 Y29.220 E0.1012
G1 X47.925 Y29.104 E0.0575
G1 X47.824 Y29.068 E0.0120
G1 X47.824 Y29.989 E0.1033
G1 X47.557 Y29.919 E0.0309
G1 X47.224 Y29.796 E0.0399
G1 X47.224 Y28.844 E0.1069
G1 X46.705 Y28.589 E0.0648
G1 X46.624 Y28.536 E0.0109
G1 X46.624 Y29.538 E0.1125
G1 X46.312 Y29.385 E0.0390
G1 X46.024 Y29.206 E0.0382
G1 X46.024 Y28.129 E0.1208
G1 X45.634 Y27.811 E0.0564
G1 X45.424 Y27.594 E0.0339
G1 X45.424 Y28.784 E0.1336
G1 X45.201 Y28.612 E0.0317
G1 X44.824 Y28.253 E0.0584
G1 X44.824 Y26.883 E0.1538
M4
G1 X68.824 Y23.873 F1500
M3
G1 X68.824 Y22.556 E0.1478 F2100
G1 X68.860 Y22.201 E0.0401
G1 X68.996 Y21.537 E0.0761
G1 X69.199 Y20.890 E0.0761
G1 X69.424 Y20.367 E0.0639
G1 X69.424 Y26.062 E0.6393
G1 X69.467 Y26.163 E0.0122
G1 X69.796 Y26.755 E0.0761
G1 X70.024 Y27.083 E0.0448
G1 X70.024 Y25.193 E0.2121
G1 X69.860 Y24.691 E0.0593
G1 X69.729 Y24.041 E0.0744
G1 X69.672 Y23.381 E0.0744
G1 X69.691 Y22.718 E0.0744
G1 X69.785 Y22.062 E0.0744
G1 X69.954 Y21.420 E0.0744
G1 X70.024 Y21.241 E0.0216
G1 X70.024 Y19.347 E0.2127
G1 X70.183 Y19.118 E0.0313
G1 X70.624 Y18.604 E0.0759
G1 X70.624 Y20.041 E0.1613
G1 X70.878 Y19.669 E0.0506
G1 X71.224 Y19.270 E0.0592
G1 X71.224 Y18.053 E0.1367
G1 X71.652 Y17.721 E0.0608
G1 X71.824 Y17.614 E0.0227
G1 X71.824 Y18.703 E0.1222
G1 X72.337 Y18.330 E0.0712
G1 X72.424 Y18.281 E0.0112
G1 X72.424 Y17.266 E0.1139
G1 X72.837 Y17.064 E0.0516
G1 X73.024 Y16.994 E0.0224
G1 X73.024 Y17.958 E0.1082
G1 X73.525 Y17.746 E0.0611
G1 X73.624 Y17.717 E0.0116
G1 X73.624 Y16.789 E0.1042
G1 X74.129 Y16.658 E0.0586
G1 X74.224 Y16.644 E0.0108
G1 X74.224 Y17.548 E0.1016
G1 X74.814 Y17.446 E0.0673
G1 X74.824 Y17.446 E0.0011
G1 X74.824 Y16.554 E0.1001
G1 X75.424 Y16.524 E0.0674
G1 X75.424 Y17.411 E0.0996
G1 X76.024 Y17.440 E0.0674
G1 X76.024 Y16.549 E0.1001
G1 X76.101 Y16.553 E0.0087
G1 X76.624 Y16.629 E0.0593
G1 X76.624 Y17.530 E0.1011
G1 X76.791 Y17.559 E0.0191
G1 X77.224 Y17.686 E0.0506
G1 X77.224 Y16.762 E0.1038
G1 X77.480 Y16.828 E0.0297
G1 X77.824 Y16.955 E0.0411
G1 X77.824 Y17.913 E0.1075
G1 X78.038 Y18.004 E0.0261
G1 X78.424 Y18.222 E0.0497
G1 X78.424 Y17.215 E0.1131
G1 X78.725 Y17.362 E0.0376
G1 X79.024 Y17.549 E0.0395
G1 X79.024 Y18.627 E0.1210
G1 X79.152 Y18.720 E0.0178
G1 X79.624 Y19.153 E0.0719
